; generated by PrusaSlicer 2.7.4+MacOS-arm64 on 2024-11-14 at 21:17:21 UTC


;
;

;
;

;
;

;
;
; 

; external perimeters extrusion width = 0.45mm
; perimeters extrusion width = 0.45mm
; infill extrusion width = 0.45mm
; solid infill extrusion width = 0.45mm
; top infill extrusion width = 0.40mm
; first layer extrusion width = 0.42mm

M73 P0 R125
M201 X2500 Y2500 Z400 E5000 ; sets maximum accelerations, mm/sec^2
M203 X180 Y180 Z12 E80 ; sets maximum feedrates, mm / sec
M204 P2000 R1250 T2500 ; sets acceleration (P, T) and retract acceleration (R), mm/sec^2
M205 X8.00 Y8.00 Z2.00 E10.00 ; sets the jerk limits, mm/sec
M205 S0 T0 ; sets the minimum extruding and travel feed rate, mm/sec

M486 S0
M486 ABox_73x60x35_1x3.stl
M486 S-1

;TYPE:Custom
M862.3 P "MINI" ; printer model check
G90 ; use absolute coordinates
M83 ; extruder relative mode
M104 S170 ; set extruder temp for bed leveling
M140 S60 ; set bed temp
M109 R170 ; wait for bed leveling temp
M190 S60 ; wait for bed temp
M204 T1250 ; set travel acceleration
G28 ; home all without mesh bed level
G29 ; mesh bed leveling 
M204 T2500 ; restore travel acceleration
M104 S215 ; set extruder temp
G92 E0
G1 Y-2 X179 F2400
G1 Z3 F720
M73 P0 R124
M109 S215 ; wait for extruder temp

; intro line
G1 X170 F1000
G1 Z0.2 F720
G1 X110 E8 F900
G1 X40 E10 F700
G92 E0

M221 S95 ; set flow
G21 ; set units to millimeters
G90 ; use absolute coordinates
M83 ; use relative distances for extrusion

M900 K0.2 ; Filament gcode LA 1.5
; ; Filament gcode LA 1.0




M107
;LAYER_CHANGE
;Z:0.2
;HEIGHT:0.2
G1 E-3.2 F4200
G1 Z.4 F720
G1 X54.545 Y60.305 F9000
G1 Z.2 F720
G1 E3.2 F2400
M204 P600
;TYPE:Skirt/Brim
;WIDTH:0.42
G1 F1200
G3 X60.653 Y57.655 I6.972 J7.709 E.2125
G1 X118.654 Y57.625 E1.81858
G1 X120.445 Y57.8 E.05642
G3 X128.877 Y67.95 I-1.971 J10.215 E.44816
G1 X128.845 Y112.847 E1.40771
G3 X119.347 Y122.345 I-10.371 J-.873 E.45779
G1 X61.45 Y122.377 E1.81532
G3 X51.156 Y112.849 I.066 J-10.396 E.48271
G1 X51.123 Y67.95 E1.40778
G3 X54.5 Y60.345 I10.394 J.064 E.26842
M204 P1000
G1 E-2.24 F4200
;WIPE_START
G1 F7200
G1 X54.545 Y60.305 E-.03337
G3 X55.87 Y59.288 I6.972 J7.709 E-.92663
;WIPE_END
G1 Z.4 F720
M486 S0
G1 X125.705 Y67.594 F9000
G1 Z.2 F720
G1 E3.2 F2400
M204 P600
;TYPE:Perimeter
;WIDTH:0.419999
G1 F1200
G3 X125.713 Y68.127 I-7.169 J.372 E.01672
G1 X125.713 Y112.033 E1.37664
G3 X118.533 Y119.213 I-7.176 J.004 E.35368
G1 X61.467 Y119.213 E1.78926
G3 X54.287 Y112.033 I-.004 J-7.176 E.35368
G1 X54.287 Y67.967 E1.38166
G3 X60.82 Y60.816 I7.175 J-.005 E.33337
G1 X61.954 Y60.787 E.03557
G1 X118.535 Y60.787 E1.77405
G3 X125.702 Y67.534 I.001 J7.179 E.34005
M204 P1000
G1 X125.702 Y67.534 F9000
G1 X126.077 Y67.585
M204 P600
;TYPE:External perimeter
G1 F1200
G3 X126.09 Y68.127 I-7.858 J.463 E.017
G1 X126.09 Y112.041 E1.37689
G3 X118.541 Y119.59 I-7.552 J-.003 E.37176
G1 X61.459 Y119.59 E1.78976
G3 X53.91 Y112.041 I.003 J-7.552 E.37176
G1 X53.91 Y67.959 E1.38216
G3 X60.791 Y60.439 I7.553 J.003 E.3508
G1 X61.949 Y60.41 E.03632
G1 X118.375 Y60.41 E1.76919
G3 X125.231 Y64.472 I.132 J7.595 E.26302
G3 X126.073 Y67.525 I-7.012 J3.576 E.09998
M204 P1000
G1 E-2.24 F4200
;WIPE_START
G1 F7200
G1 X126.077 Y67.585 E-.03332
G3 X126.09 Y68.127 I-7.858 J.46 E-.3005
G1 X126.09 Y69.257 E-.62618
;WIPE_END
G1 Z.4 F720
G1 X122.31 Y62.063 F9000
G1 Z.2 F720
G1 E3.2 F2400
M204 P600
;TYPE:Solid infill
;WIDTH:0.421599
G1 F1200
G3 X123.776 Y63.565 I-23.934 J24.83 E.0661
G3 X124.684 Y64.972 I-5.453 J4.513 E.05285
G1 X121.528 Y61.816 E.14054
G2 X120.638 Y61.462 I-2.595 J5.22 E.03019
G1 X125.038 Y65.862 E.19593
G3 X125.23 Y66.589 I-4.986 J1.701 E.0237
G1 X119.911 Y61.27 E.23685
G1 X119.276 Y61.171 E.02024
G1 X125.329 Y67.224 E.26954
G1 X125.366 Y67.796 E.01805
G1 X118.704 Y61.134 E.29666
G1 X118.161 Y61.127 E.0171
G1 X125.374 Y68.339 E.32117
G1 X125.374 Y68.875 E.01688
G1 X117.625 Y61.127 E.34504
G1 X117.09 Y61.127 E.01685
G1 X125.374 Y69.41 E.36886
G1 X125.374 Y69.946 E.01688
G1 X116.554 Y61.127 E.39273
G1 X116.019 Y61.127 E.01685
G1 X125.374 Y70.481 E.41655
G1 X125.374 Y71.017 E.01688
M73 P0 R123
G1 X115.483 Y61.127 E.44042
G1 X114.948 Y61.127 E.01685
G1 X125.374 Y71.552 E.46424
G1 X125.374 Y72.088 E.01688
G1 X114.412 Y61.127 E.48811
G1 X113.877 Y61.127 E.01685
G1 X125.374 Y72.624 E.51196
G1 X125.374 Y73.159 E.01685
G1 X113.341 Y61.127 E.5358
G1 X112.805 Y61.127 E.01688
G1 X125.374 Y73.695 E.55967
G1 X125.374 Y74.23 E.01685
G1 X112.27 Y61.127 E.5835
G1 X111.734 Y61.127 E.01688
G1 X125.374 Y74.766 E.60736
G1 X125.374 Y75.301 E.01685
G1 X111.199 Y61.127 E.63119
G1 X110.663 Y61.127 E.01688
G1 X125.374 Y75.837 E.65505
G1 X125.374 Y76.372 E.01685
G1 X110.128 Y61.127 E.67888
G1 X109.592 Y61.127 E.01688
G1 X125.374 Y76.908 E.70275
G1 X125.374 Y77.443 E.01685
G1 X109.057 Y61.127 E.72657
G1 X108.521 Y61.127 E.01688
G1 X125.374 Y77.979 E.75044
G1 X125.374 Y78.514 E.01685
G1 X107.986 Y61.127 E.77426
M73 P1 R123
G1 X107.45 Y61.127 E.01688
G1 X125.374 Y79.05 E.79813
G1 X125.374 Y79.585 E.01685
G1 X106.915 Y61.127 E.82195
G1 X106.379 Y61.127 E.01688
G1 X125.374 Y80.121 E.84582
G1 X125.374 Y80.657 E.01688
G1 X105.844 Y61.127 E.86967
G1 X105.308 Y61.127 E.01688
G1 X125.374 Y81.192 E.89351
G1 X125.374 Y81.728 E.01688
G1 X104.772 Y61.127 E.91738
G1 X104.237 Y61.127 E.01685
G1 X125.374 Y82.263 E.9412
G1 X125.374 Y82.799 E.01688
G1 X103.701 Y61.127 E.96507
G1 X103.166 Y61.127 E.01685
G1 X125.374 Y83.334 E.98889
G1 X125.374 Y83.87 E.01688
G1 X102.63 Y61.127 E1.01276
G1 X102.095 Y61.127 E.01685
G1 X125.374 Y84.405 E1.03659
G1 X125.374 Y84.941 E.01688
G1 X101.559 Y61.127 E1.06045
G1 X101.024 Y61.127 E.01685
G1 X125.374 Y85.476 E1.08428
G1 X125.374 Y86.012 E.01688
G1 X100.488 Y61.127 E1.10815
G1 X99.953 Y61.127 E.01685
G1 X125.374 Y86.547 E1.13197
G1 X125.374 Y87.083 E.01688
G1 X99.417 Y61.127 E1.15584
G1 X98.882 Y61.127 E.01685
G1 X125.374 Y87.618 E1.17966
G1 X125.374 Y88.154 E.01688
G1 X98.346 Y61.127 E1.20353
G1 X97.811 Y61.127 E.01685
G1 X125.374 Y88.69 E1.22737
G1 X125.374 Y89.225 E.01685
G1 X97.275 Y61.127 E1.25122
G1 X96.739 Y61.127 E.01688
G1 X125.374 Y89.761 E1.27509
G1 X125.374 Y90.296 E.01685
G1 X96.204 Y61.127 E1.29891
G1 X95.668 Y61.127 E.01688
G1 X125.374 Y90.832 E1.32278
G1 X125.374 Y91.367 E.01685
G1 X95.133 Y61.127 E1.3466
G1 X94.597 Y61.127 E.01688
G1 X125.374 Y91.903 E1.37047
G1 X125.374 Y92.438 E.01685
G1 X94.062 Y61.127 E1.39429
G1 X93.526 Y61.126 E.01688
M73 P1 R122
G1 X125.374 Y92.974 E1.41818
G1 X125.374 Y93.509 E.01685
G1 X92.991 Y61.126 E1.44201
G1 X92.455 Y61.126 E.01688
G1 X125.374 Y94.045 E1.46587
G1 X125.374 Y94.58 E.01685
G1 X91.92 Y61.126 E1.4897
G1 X91.384 Y61.126 E.01688
G1 X125.374 Y95.116 E1.51357
G1 X125.374 Y95.651 E.01685
G1 X90.849 Y61.126 E1.53739
G1 X90.313 Y61.126 E.01688
G1 X125.374 Y96.187 E1.56126
G1 X125.374 Y96.723 E.01688
G1 X89.778 Y61.126 E1.5851
G1 X89.242 Y61.126 E.01688
G1 X125.374 Y97.258 E1.60895
G1 X125.374 Y97.794 E.01688
G1 X88.706 Y61.126 E1.63282
G1 X88.171 Y61.126 E.01685
G1 X125.374 Y98.329 E1.65664
G1 X125.374 Y98.865 E.01688
M73 P2 R122
G1 X87.635 Y61.126 E1.68051
G1 X87.1 Y61.126 E.01685
G1 X125.374 Y99.4 E1.70433
G1 X125.374 Y99.936 E.01688
G1 X86.564 Y61.126 E1.7282
G1 X86.029 Y61.126 E.01685
G1 X125.374 Y100.471 E1.75202
G1 X125.374 Y101.007 E.01688
G1 X85.493 Y61.126 E1.77589
G1 X84.958 Y61.126 E.01685
G1 X125.374 Y101.542 E1.79971
G1 X125.374 Y102.078 E.01688
G1 X84.422 Y61.126 E1.82358
G1 X83.887 Y61.126 E.01685
G1 X125.374 Y102.613 E1.84741
G1 X125.374 Y103.149 E.01688
G1 X83.351 Y61.126 E1.87127
G1 X82.816 Y61.126 E.01685
G1 X125.374 Y103.684 E1.8951
G1 X125.374 Y104.22 E.01688
G1 X82.28 Y61.126 E1.91897
G1 X81.745 Y61.126 E.01685
M73 P2 R121
G1 X125.374 Y104.755 E1.94279
G1 X125.374 Y105.291 E.01688
G1 X81.209 Y61.126 E1.96666
G1 X80.673 Y61.126 E.01688
G1 X125.374 Y105.827 E1.99052
G1 X125.374 Y106.362 E.01685
G1 X80.138 Y61.126 E2.01435
G1 X79.602 Y61.126 E.01688
G1 X125.374 Y106.898 E2.03822
G1 X125.374 Y107.433 E.01685
G1 X79.067 Y61.126 E2.06204
G1 X78.531 Y61.126 E.01688
G1 X125.374 Y107.969 E2.08591
G1 X125.374 Y108.504 E.01685
G1 X77.996 Y61.126 E2.10973
G1 X77.46 Y61.126 E.01688
G1 X125.374 Y109.04 E2.1336
G1 X125.374 Y109.575 E.01685
G1 X76.925 Y61.126 E2.15742
G1 X76.389 Y61.126 E.01688
G1 X125.374 Y110.111 E2.18129
G1 X125.374 Y110.646 E.01685
G1 X75.854 Y61.126 E2.20511
G1 X75.318 Y61.126 E.01688
G1 X125.374 Y111.182 E2.22898
G1 X125.374 Y111.717 E.01685
M73 P3 R121
G1 X74.783 Y61.126 E2.2528
G1 X74.247 Y61.126 E.01688
G1 X125.364 Y112.243 E2.27623
G1 X125.333 Y112.748 E.01593
G1 X73.712 Y61.126 E2.29869
G1 X73.176 Y61.126 E.01688
G1 X125.271 Y113.221 E2.31978
G1 X125.174 Y113.66 E.01416
G1 X72.64 Y61.126 E2.33933
G1 X72.105 Y61.126 E.01685
M73 P3 R120
G1 X125.057 Y114.079 E2.35796
G1 X124.922 Y114.479 E.01329
G1 X71.569 Y61.126 E2.3758
G1 X71.034 Y61.126 E.01685
G1 X124.765 Y114.857 E2.39263
G1 X124.587 Y115.215 E.01259
G1 X70.498 Y61.126 E2.40857
G1 X69.963 Y61.126 E.01685
G1 X124.396 Y115.56 E2.42391
G1 X124.187 Y115.887 E.01222
G1 X69.427 Y61.126 E2.43847
G1 X68.892 Y61.126 E.01685
G1 X123.961 Y116.195 E2.45221
G1 X123.723 Y116.493 E.01201
G1 X68.356 Y61.126 E2.46548
G1 X67.821 Y61.126 E.01685
G1 X123.467 Y116.773 E2.47792
G1 X123.196 Y117.037 E.01191
G1 X67.285 Y61.126 E2.4897
G1 X66.75 Y61.126 E.01685
G1 X122.915 Y117.292 E2.50104
G1 X122.612 Y117.524 E.01202
G1 X66.214 Y61.126 E2.51139
G1 X65.679 Y61.126 E.01685
G1 X122.297 Y117.745 E2.52121
G1 X121.97 Y117.953 E.0122
G1 X65.143 Y61.126 E2.53049
G1 X64.607 Y61.126 E.01688
G1 X121.618 Y118.137 E2.53869
G1 X121.253 Y118.308 E.01269
M73 P4 R119
G1 X64.072 Y61.126 E2.54628
G1 X63.536 Y61.126 E.01688
G1 X120.874 Y118.464 E2.55325
G1 X120.467 Y118.592 E.01343
G1 X63.001 Y61.126 E2.55895
G1 X62.465 Y61.126 E.01688
G1 X120.04 Y118.701 E2.5638
G1 X119.591 Y118.788 E.0144
G1 X61.93 Y61.127 E2.56763
G1 X61.408 Y61.14 E.01644
G1 X119.116 Y118.848 E2.56972
G1 X118.602 Y118.87 E.0162
G1 X60.886 Y61.154 E2.57008
G1 X60.409 Y61.212 E.01513
G1 X118.07 Y118.874 E2.56765
G1 X117.535 Y118.874 E.01685
G1 X59.96 Y61.299 E2.5638
G1 X59.533 Y61.408 E.01388
G1 X116.999 Y118.874 E2.55895
G1 X116.464 Y118.874 E.01685
G1 X59.126 Y61.536 E2.55325
G1 X58.747 Y61.692 E.01291
G1 X115.928 Y118.874 E2.54628
G1 X115.393 Y118.874 E.01685
G1 X58.382 Y61.863 E2.53869
G1 X58.03 Y62.047 E.01251
G1 X114.857 Y118.874 E2.53049
G1 X114.322 Y118.874 E.01685
M73 P4 R118
G1 X57.703 Y62.255 E2.52123
G1 X57.388 Y62.476 E.01212
G1 X113.786 Y118.874 E2.51139
G1 X113.25 Y118.874 E.01688
G1 X57.085 Y62.708 E2.50104
G1 X57.065 Y62.724 E.00081
G1 X56.804 Y62.963 E.01114
G1 X112.715 Y118.874 E2.4897
G1 X112.179 Y118.874 E.01688
M73 P5 R118
G1 X56.533 Y63.227 E2.47792
G1 X56.277 Y63.507 E.01195
G1 X111.644 Y118.874 E2.46548
G1 X111.108 Y118.874 E.01688
G1 X56.039 Y63.805 E2.45221
G1 X55.813 Y64.113 E.01203
G1 X110.573 Y118.874 E2.43847
G1 X110.037 Y118.874 E.01688
G1 X55.604 Y64.44 E2.42391
G1 X55.413 Y64.785 E.01242
G1 X109.502 Y118.874 E2.40857
G1 X108.966 Y118.874 E.01688
G1 X55.235 Y65.143 E2.39263
G1 X55.078 Y65.521 E.01289
G1 X108.431 Y118.874 E2.3758
G1 X107.895 Y118.874 E.01688
G1 X54.943 Y65.921 E2.35796
G1 X54.826 Y66.339 E.01367
G1 X107.36 Y118.874 E2.33935
G1 X106.824 Y118.874 E.01688
G1 X54.729 Y66.779 E2.31978
G1 X54.667 Y67.252 E.01502
G1 X106.289 Y118.874 E2.29871
G1 X105.753 Y118.874 E.01688
M73 P5 R117
G1 X54.636 Y67.756 E2.27625
G1 X54.626 Y68.283 E.0166
G1 X105.217 Y118.874 E2.2528
G1 X104.682 Y118.874 E.01685
G1 X54.626 Y68.818 E2.22898
G1 X54.626 Y69.354 E.01688
G1 X104.146 Y118.874 E2.20511
G1 X103.611 Y118.874 E.01685
G1 X54.626 Y69.889 E2.18129
G1 X54.626 Y70.425 E.01688
G1 X103.075 Y118.874 E2.15742
G1 X102.54 Y118.874 E.01685
G1 X54.626 Y70.96 E2.1336
G1 X54.626 Y71.496 E.01688
G1 X102.004 Y118.874 E2.10973
G1 X101.469 Y118.874 E.01685
M73 P6 R117
G1 X54.626 Y72.031 E2.08591
G1 X54.626 Y72.567 E.01688
G1 X100.933 Y118.874 E2.06204
G1 X100.398 Y118.874 E.01685
G1 X54.626 Y73.102 E2.03822
G1 X54.626 Y73.638 E.01688
G1 X99.862 Y118.874 E2.01435
G1 X99.327 Y118.874 E.01685
G1 X54.626 Y74.173 E1.99052
G1 X54.626 Y74.709 E.01688
G1 X98.791 Y118.874 E1.96666
G1 X98.256 Y118.874 E.01685
G1 X54.626 Y75.244 E1.94283
G1 X54.626 Y75.78 E.01688
G1 X97.72 Y118.874 E1.91897
G1 X97.185 Y118.874 E.01685
G1 X54.626 Y76.316 E1.89512
G1 X54.626 Y76.851 E.01685
G1 X96.649 Y118.874 E1.87127
G1 X96.113 Y118.874 E.01688
M73 P6 R116
G1 X54.626 Y77.387 E1.84741
G1 X54.626 Y77.922 E.01685
G1 X95.578 Y118.874 E1.82358
G1 X95.042 Y118.874 E.01688
G1 X54.626 Y78.458 E1.79971
G1 X54.626 Y78.993 E.01685
G1 X94.507 Y118.874 E1.77589
G1 X93.971 Y118.874 E.01688
G1 X54.626 Y79.529 E1.75202
G1 X54.626 Y80.064 E.01685
G1 X93.436 Y118.874 E1.7282
G1 X92.9 Y118.874 E.01688
G1 X54.626 Y80.6 E1.70433
G1 X54.626 Y81.135 E.01685
G1 X92.365 Y118.874 E1.68051
G1 X91.829 Y118.874 E.01688
G1 X54.626 Y81.671 E1.65664
G1 X54.626 Y82.206 E.01685
G1 X91.294 Y118.874 E1.63282
G1 X90.758 Y118.874 E.01688
G1 X54.626 Y82.742 E1.60895
G1 X54.626 Y83.277 E.01685
G1 X90.223 Y118.874 E1.58513
G1 X89.687 Y118.874 E.01688
G1 X54.626 Y83.813 E1.56126
G1 X54.626 Y84.348 E.01685
G1 X89.152 Y118.874 E1.53743
G1 X88.616 Y118.874 E.01688
G1 X54.626 Y84.884 E1.51357
G1 X54.626 Y85.42 E.01688
G1 X88.08 Y118.874 E1.4897
G1 X87.545 Y118.874 E.01685
M73 P7 R116
G1 X54.626 Y85.955 E1.46587
G1 X54.626 Y86.491 E.01688
G1 X87.009 Y118.874 E1.44201
G1 X86.474 Y118.874 E.01685
G1 X54.626 Y87.026 E1.41818
G1 X54.626 Y87.562 E.01688
G1 X85.938 Y118.874 E1.39432
G1 X85.403 Y118.874 E.01685
G1 X54.626 Y88.097 E1.37049
G1 X54.626 Y88.633 E.01688
G1 X84.867 Y118.874 E1.34662
G1 X84.332 Y118.874 E.01685
G1 X54.626 Y89.168 E1.3228
G1 X54.626 Y89.704 E.01688
M73 P7 R115
G1 X83.796 Y118.874 E1.29893
G1 X83.261 Y118.874 E.01685
G1 X54.626 Y90.239 E1.27511
G1 X54.626 Y90.775 E.01688
G1 X82.725 Y118.874 E1.25124
G1 X82.19 Y118.874 E.01685
G1 X54.626 Y91.31 E1.22742
G1 X54.626 Y91.846 E.01688
G1 X81.654 Y118.874 E1.20355
G1 X81.119 Y118.874 E.01685
G1 X54.626 Y92.381 E1.17973
G1 X54.626 Y92.917 E.01688
G1 X80.583 Y118.874 E1.15586
G1 X80.047 Y118.874 E.01688
G1 X54.626 Y93.453 E1.13199
G1 X54.626 Y93.988 E.01685
G1 X79.512 Y118.874 E1.10817
G1 X78.976 Y118.874 E.01688
G1 X54.626 Y94.524 E1.0843
G1 X54.626 Y95.059 E.01685
G1 X78.441 Y118.874 E1.06048
G1 X77.905 Y118.874 E.01688
G1 X54.626 Y95.595 E1.03661
G1 X54.626 Y96.13 E.01685
G1 X77.37 Y118.874 E1.01278
G1 X76.834 Y118.874 E.01688
G1 X54.626 Y96.666 E.98892
G1 X54.626 Y97.201 E.01685
G1 X76.299 Y118.874 E.96509
G1 X75.763 Y118.874 E.01688
G1 X54.626 Y97.737 E.94123
G1 X54.626 Y98.272 E.01685
G1 X75.228 Y118.874 E.9174
G1 X74.692 Y118.874 E.01688
G1 X54.626 Y98.808 E.89353
G1 X54.626 Y99.343 E.01685
G1 X74.157 Y118.874 E.86971
G1 X73.621 Y118.874 E.01688
G1 X54.626 Y99.879 E.84584
G1 X54.626 Y100.414 E.01685
G1 X73.086 Y118.874 E.82202
G1 X72.55 Y118.874 E.01688
G1 X54.626 Y100.95 E.79815
G1 X54.626 Y101.486 E.01688
G1 X72.014 Y118.874 E.77428
G1 X71.479 Y118.874 E.01685
G1 X54.626 Y102.021 E.75046
G1 X54.626 Y102.557 E.01688
G1 X70.943 Y118.874 E.72659
G1 X70.408 Y118.874 E.01685
G1 X54.626 Y103.092 E.70277
G1 X54.626 Y103.628 E.01688
G1 X69.872 Y118.874 E.6789
G1 X69.337 Y118.874 E.01685
G1 X54.626 Y104.163 E.65508
G1 X54.626 Y104.699 E.01688
G1 X68.801 Y118.874 E.63121
G1 X68.266 Y118.874 E.01685
G1 X54.626 Y105.234 E.60739
G1 X54.626 Y105.77 E.01688
G1 X67.73 Y118.874 E.58352
G1 X67.195 Y118.874 E.01685
G1 X54.626 Y106.305 E.55969
G1 X54.626 Y106.841 E.01688
G1 X66.659 Y118.874 E.53583
G1 X66.124 Y118.874 E.01685
G1 X54.626 Y107.376 E.512
G1 X54.626 Y107.912 E.01688
G1 X65.588 Y118.874 E.48814
G1 X65.053 Y118.874 E.01685
G1 X54.626 Y108.447 E.46431
G1 X54.626 Y108.983 E.01688
G1 X64.517 Y118.874 E.44044
G1 X63.981 Y118.874 E.01688
G1 X54.626 Y109.519 E.41658
G1 X54.626 Y110.054 E.01685
G1 X63.446 Y118.874 E.39275
G1 X62.91 Y118.874 E.01688
G1 X54.626 Y110.59 E.36888
G1 X54.626 Y111.125 E.01685
G1 X62.375 Y118.874 E.34506
G1 X61.839 Y118.874 E.01688
G1 X54.626 Y111.661 E.32119
G1 X54.634 Y112.204 E.0171
G1 X61.296 Y118.866 E.29666
