; generated by PrusaSlicer 2.7.4+MacOS-arm64 on 2024-11-26 at 21:38:10 UTC


;
;

;
;

;
;

;
;
; 

; external perimeters extrusion width = 0.45mm
; perimeters extrusion width = 0.45mm
; infill extrusion width = 0.45mm
; solid infill extrusion width = 0.45mm
; top infill extrusion width = 0.40mm
; first layer extrusion width = 0.42mm

M73 P0 R116
M201 X2500 Y2500 Z400 E5000 ; sets maximum accelerations, mm/sec^2
M203 X180 Y180 Z12 E80 ; sets maximum feedrates, mm / sec
M204 P2000 R1250 T2500 ; sets acceleration (P, T) and retract acceleration (R), mm/sec^2
M205 X8.00 Y8.00 Z2.00 E10.00 ; sets the jerk limits, mm/sec
M205 S0 T0 ; sets the minimum extruding and travel feed rate, mm/sec

M486 S0
M486 ACover_73x180x2.stl
M486 S-1

;TYPE:Custom
M862.3 P "MINI" ; printer model check
G90 ; use absolute coordinates
M83 ; extruder relative mode
M104 S170 ; set extruder temp for bed leveling
M140 S60 ; set bed temp
M109 R170 ; wait for bed leveling temp
M190 S60 ; wait for bed temp
M204 T1250 ; set travel acceleration
G28 ; home all without mesh bed level
G29 ; mesh bed leveling 
M204 T2500 ; restore travel acceleration
M104 S215 ; set extruder temp
G92 E0
G1 Y-2 X179 F2400
G1 Z3 F720
M109 S215 ; wait for extruder temp

; intro line
G1 X170 F1000
G1 Z0.2 F720
G1 X110 E8 F900
G1 X40 E10 F700
G92 E0

M221 S95 ; set flow
G21 ; set units to millimeters
G90 ; use absolute coordinates
M83 ; use relative distances for extrusion

M900 K0.2 ; Filament gcode LA 1.5
; ; Filament gcode LA 1.0




M107
;LAYER_CHANGE
;Z:0.2
;HEIGHT:0.2
G1 E-3.2 F4200
G1 Z.4 F720
G1 X62.51 Y62.51 F9000
G1 Z.2 F720
G1 E3.2 F2400
M204 P600
;TYPE:Skirt/Brim
;WIDTH:0.42
G1 F1200
G1 X120.493 Y4.527 E2.57106
G3 X130.415 Y1.817 I7.373 J7.476 E.33701
G3 X135.093 Y4.455 I-2.99 J10.766 E.17005
G1 X176.016 Y45.422 E1.81557
G3 X175.473 Y59.507 I-7.952 J6.746 E.48528
G1 X59.433 Y175.545 E5.14536
G3 X44.832 Y175.473 I-7.264 J-7.484 E.50713
G1 X3.984 Y134.578 E1.81231
G3 X4.527 Y120.493 I7.953 J-6.746 E.48527
M73 P0 R115
G1 X62.467 Y62.552 E2.56918
M204 P1000
G1 E-2.24 F4200
;WIPE_START
G1 F7200
G1 X62.51 Y62.51 E-.03331
G1 X63.692 Y61.328 E-.92669
;WIPE_END
G1 Z.4 F720
M486 S0
G1 X173.66 Y56.805 F9000
G1 Z.2 F720
G1 E3.2 F2400
M204 P600
;TYPE:Perimeter
;WIDTH:0.419999
G1 F1200
G3 X173.223 Y57.282 I-5.535 J-4.628 E.02029
G1 X57.282 Y173.223 E5.14101
G3 X47.057 Y173.223 I-5.112 J-5.106 E.35616
G1 X6.777 Y132.943 E1.78608
G3 X6.777 Y122.718 I5.106 J-5.113 E.35616
G1 X122.718 Y6.777 E5.14101
G3 X132.943 Y6.777 I5.112 J5.106 E.35616
G1 X173.109 Y46.943 E1.78102
G3 X175.334 Y52.484 I-5.087 J5.26 E.19284
G3 X173.698 Y56.759 I-7.209 J-.307 E.14604
M204 P1000
G1 X173.698 Y56.759 F9000
G1 X173.947 Y57.05
M204 P600
;TYPE:External perimeter
G1 F1200
G3 X173.496 Y57.543 I-5.819 J-4.872 E.02096
G1 X57.543 Y173.496 E5.14154
G3 X46.797 Y173.496 I-5.373 J-5.378 E.37419
M73 P1 R115
G1 X6.504 Y133.203 E1.78666
G3 X6.504 Y122.457 I5.378 J-5.373 E.37419
G1 X122.457 Y6.504 E5.14154
G3 X133.203 Y6.504 I5.373 J5.378 E.37419
G1 X173.376 Y46.677 E1.78134
G3 X175.71 Y52.5 I-5.356 J5.526 E.20259
G3 X173.985 Y57.004 I-7.582 J-.322 E.15389
M204 P1000
G1 E-2.24 F4200
;WIPE_START
G1 F7200
G1 X173.947 Y57.05 E-.03306
G3 X173.496 Y57.543 I-5.82 J-4.871 E-.3704
G1 X172.786 Y58.253 E-.55654
;WIPE_END
G1 Z.4 F720
G1 X174.058 Y48.372 F9000
G1 Z.2 F720
G1 E3.2 F2400
M204 P600
;TYPE:Solid infill
;WIDTH:0.420301
G1 F1200
G1 X132.705 Y7.019 E1.83513
G2 X130.847 Y5.694 I-4.948 J4.975 E.07193
G1 X174.306 Y49.153 E1.92858
G3 X174.665 Y50.046 I-5.156 J2.594 E.03024
M73 P1 R114
G1 X129.954 Y5.335 E1.98415
G2 X129.226 Y5.142 I-1.709 J4.96 E.02365
G1 X174.858 Y50.774 E2.02502
G1 X174.96 Y51.409 E.02018
G1 X128.591 Y5.04 E2.05772
G1 X128.018 Y5 E.01802
G1 X175 Y51.982 E2.08493
G1 X174.993 Y52.509 E.01654
G1 X127.491 Y5.007 E2.108
G1 X126.999 Y5.049 E.01549
G1 X174.951 Y53.001 E2.12797
G1 X174.881 Y53.465 E.01472
G1 X126.535 Y5.119 E2.14546
G1 X126.099 Y5.216 E.01402
G1 X174.784 Y53.901 E2.1605
G1 X174.659 Y54.311 E.01345
G1 X125.689 Y5.341 E2.17315
G1 X125.297 Y5.482 E.01307
G1 X174.518 Y54.703 E2.18429
G1 X174.361 Y55.08 E.01281
G1 X124.92 Y5.639 E2.19405
G1 X124.569 Y5.822 E.01242
G1 X174.178 Y55.431 E2.2015
G1 X173.983 Y55.769 E.01224
G1 X124.231 Y6.017 E2.20785
G1 X123.905 Y6.225 E.01213
M73 P2 R114
G1 X173.775 Y56.095 E2.21309
G1 X173.545 Y56.398 E.01194
G1 X123.602 Y6.455 E2.21633
G1 X123.309 Y6.696 E.0119
G1 X173.305 Y56.691 E2.21866
G1 X173.049 Y56.97 E.01188
G1 X123.03 Y6.951 E2.2197
G1 X122.76 Y7.214 E.01183
G1 X172.786 Y57.24 E2.22001
G1 X172.519 Y57.507 E.01185
M73 P2 R113
G1 X122.493 Y7.481 E2.22001
G1 X122.226 Y7.748 E.01185
G1 X172.252 Y57.774 E2.22001
G1 X171.985 Y58.041 E.01185
G1 X121.959 Y8.015 E2.22001
G1 X121.693 Y8.282 E.01183
G1 X171.718 Y58.307 E2.21997
G1 X171.451 Y58.574 E.01185
G1 X121.426 Y8.549 E2.21997
G1 X121.159 Y8.815 E.01183
G1 X171.185 Y58.841 E2.22001
G1 X170.918 Y59.108 E.01185
G1 X120.892 Y9.082 E2.22001
G1 X120.625 Y9.349 E.01185
G1 X170.651 Y59.375 E2.22001
G1 X170.384 Y59.642 E.01185
G1 X120.358 Y9.616 E2.22001
G1 X120.091 Y9.883 E.01185
G1 X170.117 Y59.909 E2.22001
G1 X169.85 Y60.175 E.01183
G1 X119.825 Y10.15 E2.21997
G1 X119.558 Y10.416 E.01183
G1 X169.584 Y60.442 E2.22001
G1 X169.317 Y60.709 E.01185
G1 X119.291 Y10.683 E2.22001
G1 X119.024 Y10.95 E.01185
G1 X169.05 Y60.976 E2.22001
G1 X168.783 Y61.243 E.01185
M73 P3 R113
G1 X118.757 Y11.217 E2.22001
G1 X118.49 Y11.484 E.01185
G1 X168.516 Y61.51 E2.22001
G1 X168.249 Y61.776 E.01183
M73 P3 R112
G1 X118.224 Y11.751 E2.21997
G1 X117.957 Y12.018 E.01185
G1 X167.982 Y62.043 E2.21997
G1 X167.716 Y62.31 E.01183
G1 X117.69 Y12.284 E2.22001
G1 X117.423 Y12.551 E.01185
G1 X167.449 Y62.577 E2.22001
G1 X167.182 Y62.844 E.01185
G1 X117.156 Y12.818 E2.22001
G1 X116.889 Y13.085 E.01185
G1 X166.915 Y63.111 E2.22001
G1 X166.648 Y63.378 E.01185
G1 X116.622 Y13.352 E2.22001
G1 X116.356 Y13.619 E.01183
G1 X166.381 Y63.644 E2.21997
G1 X166.114 Y63.911 E.01185
G1 X116.089 Y13.886 E2.21997
G1 X115.822 Y14.152 E.01183
G1 X165.848 Y64.178 E2.22001
G1 X165.581 Y64.445 E.01185
G1 X115.555 Y14.419 E2.22001
G1 X115.288 Y14.686 E.01185
G1 X165.314 Y64.712 E2.22001
G1 X165.047 Y64.979 E.01185
G1 X115.021 Y14.953 E2.22001
G1 X114.754 Y15.22 E.01185
G1 X164.78 Y65.246 E2.22001
G1 X164.513 Y65.512 E.01183
G1 X114.488 Y15.487 E2.21997
G1 X114.221 Y15.753 E.01183
G1 X164.247 Y65.779 E2.22001
G1 X163.98 Y66.046 E.01185
G1 X113.954 Y16.02 E2.22001
G1 X113.687 Y16.287 E.01185
M73 P3 R111
G1 X163.713 Y66.313 E2.22001
G1 X163.446 Y66.58 E.01185
M73 P4 R111
G1 X113.42 Y16.554 E2.22001
G1 X113.153 Y16.821 E.01185
G1 X163.179 Y66.847 E2.22001
G1 X162.912 Y67.113 E.01183
G1 X112.887 Y17.088 E2.21997
G1 X112.62 Y17.355 E.01185
G1 X162.645 Y67.38 E2.21997
G1 X162.379 Y67.647 E.01183
G1 X112.353 Y17.621 E2.22001
G1 X112.086 Y17.888 E.01185
G1 X162.112 Y67.914 E2.22001
G1 X161.845 Y68.181 E.01185
G1 X111.819 Y18.155 E2.22001
G1 X111.552 Y18.422 E.01185
G1 X161.578 Y68.448 E2.22001
G1 X161.311 Y68.715 E.01185
G1 X111.285 Y18.689 E2.22001
G1 X111.019 Y18.956 E.01183
G1 X161.044 Y68.981 E2.21997
G1 X160.778 Y69.248 E.01183
G1 X110.752 Y19.222 E2.22001
G1 X110.485 Y19.489 E.01185
G1 X160.511 Y69.515 E2.22001
G1 X160.244 Y69.782 E.01185
G1 X110.218 Y19.756 E2.22001
G1 X109.951 Y20.023 E.01185
G1 X159.977 Y70.049 E2.22001
G1 X159.71 Y70.316 E.01185
G1 X109.684 Y20.29 E2.22001
G1 X109.418 Y20.557 E.01183
G1 X159.443 Y70.582 E2.21997
G1 X159.176 Y70.849 E.01185
M73 P4 R110
G1 X109.151 Y20.824 E2.21997
G1 X108.884 Y21.09 E.01183
G1 X158.91 Y71.116 E2.22001
G1 X158.643 Y71.383 E.01185
G1 X108.617 Y21.357 E2.22001
G1 X108.35 Y21.624 E.01185
G1 X158.376 Y71.65 E2.22001
G1 X158.109 Y71.917 E.01185
M73 P5 R110
G1 X108.083 Y21.891 E2.22001
G1 X107.816 Y22.158 E.01185
G1 X157.842 Y72.184 E2.22001
G1 X157.575 Y72.45 E.01183
G1 X107.55 Y22.425 E2.21997
G1 X107.283 Y22.692 E.01185
G1 X157.308 Y72.717 E2.21997
G1 X157.042 Y72.984 E.01183
G1 X107.016 Y22.958 E2.22001
G1 X106.749 Y23.225 E.01185
G1 X156.775 Y73.251 E2.22001
G1 X156.508 Y73.518 E.01185
G1 X106.482 Y23.492 E2.22001
G1 X106.215 Y23.759 E.01185
G1 X156.241 Y73.785 E2.22001
G1 X155.974 Y74.052 E.01185
G1 X105.948 Y24.026 E2.22001
G1 X105.682 Y24.293 E.01183
G1 X155.707 Y74.318 E2.21997
G1 X155.441 Y74.585 E.01183
G1 X105.415 Y24.559 E2.22001
G1 X105.148 Y24.826 E.01185
G1 X155.174 Y74.852 E2.22001
G1 X154.907 Y75.119 E.01185
G1 X104.881 Y25.093 E2.22001
G1 X104.614 Y25.36 E.01185
M73 P5 R109
G1 X154.64 Y75.386 E2.22001
G1 X154.373 Y75.653 E.01185
G1 X104.347 Y25.627 E2.22001
G1 X104.081 Y25.894 E.01183
G1 X154.106 Y75.919 E2.21997
G1 X153.839 Y76.186 E.01185
G1 X103.814 Y26.161 E2.21997
G1 X103.547 Y26.427 E.01183
G1 X153.573 Y76.453 E2.22001
G1 X153.306 Y76.72 E.01185
G1 X103.28 Y26.694 E2.22001
G1 X103.013 Y26.961 E.01185
M73 P6 R109
G1 X153.039 Y76.987 E2.22001
G1 X152.772 Y77.254 E.01185
G1 X102.746 Y27.228 E2.22001
G1 X102.479 Y27.495 E.01185
G1 X152.505 Y77.521 E2.22001
G1 X152.238 Y77.787 E.01183
G1 X102.213 Y27.762 E2.21997
G1 X101.946 Y28.029 E.01185
G1 X151.972 Y78.054 E2.21999
G1 X151.705 Y78.321 E.01185
G1 X101.679 Y28.295 E2.22001
G1 X101.412 Y28.562 E.01185
G1 X151.438 Y78.588 E2.22001
G1 X151.171 Y78.855 E.01185
G1 X101.145 Y28.829 E2.22001
G1 X100.878 Y29.096 E.01185
G1 X150.904 Y79.122 E2.22001
G1 X150.637 Y79.389 E.01185
G1 X100.612 Y29.363 E2.21999
G1 X100.345 Y29.63 E.01185
G1 X150.37 Y79.655 E2.21997
G1 X150.104 Y79.922 E.01183
M73 P6 R108
G1 X100.078 Y29.896 E2.22001
G1 X99.811 Y30.163 E.01185
G1 X149.837 Y80.189 E2.22001
G1 X149.57 Y80.456 E.01185
G1 X99.544 Y30.43 E2.22001
G1 X99.277 Y30.697 E.01185
G1 X149.303 Y80.723 E2.22001
G1 X149.036 Y80.99 E.01185
G1 X99.01 Y30.964 E2.22001
G1 X98.744 Y31.231 E.01183
G1 X148.769 Y81.256 E2.21997
G1 X148.502 Y81.523 E.01185
G1 X98.477 Y31.498 E2.21997
G1 X98.21 Y31.764 E.01183
G1 X148.236 Y81.79 E2.22001
G1 X147.969 Y82.057 E.01185
G1 X97.943 Y32.031 E2.22001
G1 X97.676 Y32.298 E.01185
M73 P7 R108
G1 X147.702 Y82.324 E2.22001
G1 X147.435 Y82.591 E.01185
G1 X97.409 Y32.565 E2.22001
G1 X97.142 Y32.832 E.01185
G1 X147.168 Y82.858 E2.22001
G1 X146.901 Y83.124 E.01183
G1 X96.876 Y33.099 E2.21997
G1 X96.609 Y33.365 E.01183
G1 X146.635 Y83.391 E2.22001
G1 X146.368 Y83.658 E.01185
G1 X96.342 Y33.632 E2.22001
G1 X96.075 Y33.899 E.01185
G1 X146.101 Y83.925 E2.22001
G1 X145.834 Y84.192 E.01185
M73 P7 R107
G1 X95.808 Y34.166 E2.22001
G1 X95.541 Y34.433 E.01185
G1 X145.567 Y84.459 E2.22001
G1 X145.3 Y84.725 E.01183
G1 X95.275 Y34.7 E2.21997
G1 X95.008 Y34.967 E.01185
G1 X145.033 Y84.992 E2.21997
G1 X144.767 Y85.259 E.01183
G1 X94.741 Y35.233 E2.22001
G1 X94.474 Y35.5 E.01185
G1 X144.5 Y85.526 E2.22001
G1 X144.233 Y85.793 E.01185
G1 X94.207 Y35.767 E2.22001
G1 X93.94 Y36.034 E.01185
G1 X143.966 Y86.06 E2.22001
G1 X143.699 Y86.327 E.01185
G1 X93.673 Y36.301 E2.22001
G1 X93.407 Y36.568 E.01183
G1 X143.432 Y86.593 E2.21997
G1 X143.166 Y86.86 E.01183
G1 X93.14 Y36.835 E2.21999
G1 X92.873 Y37.101 E.01183
G1 X142.899 Y87.127 E2.22001
G1 X142.632 Y87.394 E.01185
M73 P8 R107
G1 X92.606 Y37.368 E2.22001
G1 X92.339 Y37.635 E.01185
G1 X142.365 Y87.661 E2.22001
G1 X142.098 Y87.928 E.01185
G1 X92.072 Y37.902 E2.22001
G1 X91.806 Y38.169 E.01183
G1 X141.831 Y88.195 E2.21999
G1 X141.564 Y88.461 E.01183
G1 X91.539 Y38.436 E2.21997
G1 X91.272 Y38.702 E.01183
M73 P8 R106
G1 X141.298 Y88.728 E2.22001
G1 X141.031 Y88.995 E.01185
G1 X91.005 Y38.969 E2.22001
G1 X90.738 Y39.236 E.01185
G1 X140.764 Y89.262 E2.22001
G1 X140.497 Y89.529 E.01185
G1 X90.471 Y39.503 E2.22001
G1 X90.204 Y39.77 E.01185
G1 X140.23 Y89.796 E2.22001
G1 X139.963 Y90.062 E.01183
G1 X89.938 Y40.037 E2.21997
G1 X89.671 Y40.304 E.01185
G1 X139.696 Y90.329 E2.21997
G1 X139.43 Y90.596 E.01183
G1 X89.404 Y40.57 E2.22001
G1 X89.137 Y40.837 E.01185
G1 X139.163 Y90.863 E2.22001
G1 X138.896 Y91.13 E.01185
G1 X88.87 Y41.104 E2.22001
G1 X88.603 Y41.371 E.01185
G1 X138.629 Y91.397 E2.22001
G1 X138.362 Y91.664 E.01185
G1 X88.336 Y41.638 E2.22001
G1 X88.07 Y41.905 E.01183
G1 X138.095 Y91.93 E2.21997
G1 X137.829 Y92.197 E.01183
G1 X87.803 Y42.171 E2.22001
G1 X87.536 Y42.438 E.01185
G1 X137.562 Y92.464 E2.22001
G1 X137.295 Y92.731 E.01185
M73 P9 R106
G1 X87.269 Y42.705 E2.22001
G1 X87.002 Y42.972 E.01185
G1 X137.028 Y92.998 E2.22001
G1 X136.761 Y93.265 E.01185
M73 P9 R105
G1 X86.735 Y43.239 E2.22001
G1 X86.469 Y43.506 E.01183
G1 X136.494 Y93.531 E2.21997
G1 X136.227 Y93.798 E.01185
G1 X86.202 Y43.773 E2.21997
G1 X85.935 Y44.039 E.01183
G1 X135.961 Y94.065 E2.22001
G1 X135.694 Y94.332 E.01185
G1 X85.668 Y44.306 E2.22001
G1 X85.401 Y44.573 E.01185
G1 X135.427 Y94.599 E2.22001
G1 X135.16 Y94.866 E.01185
G1 X85.134 Y44.84 E2.22001
G1 X84.867 Y45.107 E.01185
G1 X134.893 Y95.133 E2.22001
G1 X134.626 Y95.399 E.01183
G1 X84.601 Y45.374 E2.21997
G1 X84.334 Y45.641 E.01185
G1 X134.359 Y95.666 E2.21997
G1 X134.093 Y95.933 E.01183
G1 X84.067 Y45.907 E2.22001
G1 X83.8 Y46.174 E.01185
G1 X133.826 Y96.2 E2.22001
G1 X133.559 Y96.467 E.01185
G1 X83.533 Y46.441 E2.22001
G1 X83.266 Y46.708 E.01185
G1 X133.292 Y96.734 E2.22001
G1 X133.025 Y97.001 E.01185
G1 X82.999 Y46.975 E2.22001
G1 X82.733 Y47.242 E.01183
G1 X132.758 Y97.267 E2.21997
G1 X132.492 Y97.534 E.01183
G1 X82.466 Y47.508 E2.22001
G1 X82.199 Y47.775 E.01185
M73 P9 R104
G1 X132.225 Y97.801 E2.22001
G1 X131.958 Y98.068 E.01185
M73 P10 R104
G1 X81.932 Y48.042 E2.22001
G1 X81.665 Y48.309 E.01185
G1 X131.691 Y98.335 E2.22001
G1 X131.424 Y98.602 E.01185
G1 X81.398 Y48.576 E2.22001
G1 X81.132 Y48.843 E.01183
G1 X131.157 Y98.868 E2.21997
G1 X130.89 Y99.135 E.01185
G1 X80.865 Y49.11 E2.21997
G1 X80.598 Y49.376 E.01183
G1 X130.624 Y99.402 E2.22001
G1 X130.357 Y99.669 E.01185
G1 X80.331 Y49.643 E2.22001
G1 X80.064 Y49.91 E.01185
G1 X130.09 Y99.936 E2.22001
G1 X129.823 Y100.203 E.01185
G1 X79.797 Y50.177 E2.22001
G1 X79.53 Y50.444 E.01185
G1 X129.556 Y100.47 E2.22001
G1 X129.289 Y100.736 E.01183
G1 X79.264 Y50.711 E2.21997
G1 X78.997 Y50.977 E.01183
G1 X129.023 Y101.003 E2.22001
G1 X128.756 Y101.27 E.01185
G1 X78.73 Y51.244 E2.22001
G1 X78.463 Y51.511 E.01185
G1 X128.489 Y101.537 E2.22001
G1 X128.222 Y101.804 E.01185
G1 X78.196 Y51.778 E2.22001
G1 X77.929 Y52.045 E.01185
G1 X127.955 Y102.071 E2.22001
G1 X127.688 Y102.337 E.01183
M73 P10 R103
G1 X77.663 Y52.312 E2.21997
G1 X77.396 Y52.579 E.01185
G1 X127.421 Y102.604 E2.21997
G1 X127.155 Y102.871 E.01183
G1 X77.129 Y52.845 E2.22001
G1 X76.862 Y53.112 E.01185
M73 P11 R103
G1 X126.888 Y103.138 E2.22001
G1 X126.621 Y103.405 E.01185
G1 X76.595 Y53.379 E2.22001
G1 X76.328 Y53.646 E.01185
G1 X126.354 Y103.672 E2.22001
G1 X126.087 Y103.939 E.01185
G1 X76.061 Y53.913 E2.22001
G1 X75.795 Y54.18 E.01183
G1 X125.82 Y104.205 E2.21997
G1 X125.553 Y104.472 E.01185
G1 X75.528 Y54.447 E2.21997
G1 X75.261 Y54.713 E.01183
G1 X125.287 Y104.739 E2.22001
G1 X125.02 Y105.006 E.01185
G1 X74.994 Y54.98 E2.22001
G1 X74.727 Y55.247 E.01185
G1 X124.753 Y105.273 E2.22001
G1 X124.486 Y105.54 E.01185
G1 X74.46 Y55.514 E2.22001
G1 X74.193 Y55.781 E.01185
G1 X124.219 Y105.807 E2.22001
G1 X123.952 Y106.073 E.01183
G1 X73.927 Y56.048 E2.21997
G1 X73.66 Y56.314 E.01183
G1 X123.686 Y106.34 E2.22001
G1 X123.419 Y106.607 E.01185
G1 X73.393 Y56.581 E2.22001
G1 X73.126 Y56.848 E.01185
M73 P11 R102
G1 X123.152 Y106.874 E2.22001
G1 X122.885 Y107.141 E.01185
G1 X72.859 Y57.115 E2.22001
G1 X72.592 Y57.382 E.01185
G1 X122.618 Y107.408 E2.22001
G1 X122.351 Y107.674 E.01183
G1 X72.326 Y57.649 E2.21997
G1 X72.059 Y57.916 E.01185
G1 X122.084 Y107.941 E2.21997
G1 X121.818 Y108.208 E.01183
G1 X71.792 Y58.182 E2.22001
G1 X71.525 Y58.449 E.01185
M73 P12 R102
G1 X121.551 Y108.475 E2.22001
G1 X121.284 Y108.742 E.01185
G1 X71.258 Y58.716 E2.22001
G1 X70.991 Y58.983 E.01185
G1 X121.017 Y109.009 E2.22001
G1 X120.75 Y109.276 E.01185
G1 X70.724 Y59.25 E2.22001
G1 X70.458 Y59.517 E.01183
G1 X120.483 Y109.542 E2.21997
G1 X120.217 Y109.809 E.01183
G1 X70.191 Y59.783 E2.22001
G1 X69.924 Y60.05 E.01185
G1 X119.95 Y110.076 E2.22001
G1 X119.683 Y110.343 E.01185
G1 X69.657 Y60.317 E2.22001
G1 X69.39 Y60.584 E.01185
