; generated by PrusaSlicer 2.7.4+MacOS-arm64 on 2024-11-26 at 11:54:56 UTC


;
;

;
;

;
;

;
;
; 

; external perimeters extrusion width = 0.45mm
; perimeters extrusion width = 0.45mm
; infill extrusion width = 0.45mm
; solid infill extrusion width = 0.45mm
; top infill extrusion width = 0.40mm
; first layer extrusion width = 0.42mm

M73 P0 R37
M201 X2500 Y2500 Z400 E5000 ; sets maximum accelerations, mm/sec^2
M203 X180 Y180 Z12 E80 ; sets maximum feedrates, mm / sec
M204 P2000 R1250 T2500 ; sets acceleration (P, T) and retract acceleration (R), mm/sec^2
M205 X8.00 Y8.00 Z2.00 E10.00 ; sets the jerk limits, mm/sec
M205 S0 T0 ; sets the minimum extruding and travel feed rate, mm/sec

M486 S0
M486 ACover_146x30.stl
M486 S-1

;TYPE:Custom
M862.3 P "MINI" ; printer model check
G90 ; use absolute coordinates
M83 ; extruder relative mode
M104 S170 ; set extruder temp for bed leveling
M140 S60 ; set bed temp
M109 R170 ; wait for bed leveling temp
M190 S60 ; wait for bed temp
M204 T1250 ; set travel acceleration
G28 ; home all without mesh bed level
G29 ; mesh bed leveling 
M204 T2500 ; restore travel acceleration
M104 S215 ; set extruder temp
G92 E0
G1 Y-2 X179 F2400
G1 Z3 F720
M109 S215 ; wait for extruder temp

; intro line
G1 X170 F1000
G1 Z0.2 F720
G1 X110 E8 F900
G1 X40 E10 F700
G92 E0

M221 S95 ; set flow
G21 ; set units to millimeters
G90 ; use absolute coordinates
M83 ; use relative distances for extrusion

M900 K0.2 ; Filament gcode LA 1.5
; ; Filament gcode LA 1.0




M107
;LAYER_CHANGE
;Z:0.2
;HEIGHT:0.2
G1 E-3.2 F4200
G1 Z.4 F720
G1 X22.034 Y73.067 F9000
G1 Z.2 F720
M73 P0 R36
G1 E3.2 F2400
M204 P600
;TYPE:Skirt/Brim
;WIDTH:0.42
G1 F1200
G3 X25 Y72.623 I3.008 J9.975 E.09436
G1 X155.104 Y72.625 E4.07932
G3 X165.344 Y82.199 I-.165 J10.44 E.48188
M73 P1 R36
G1 X165.375 Y97.104 E.46734
G3 X155 Y107.377 I-10.416 J-.143 E.50726
G1 X24.199 Y107.344 E4.10117
G3 X14.623 Y97 I.87 J-10.41 E.48511
G1 X14.623 Y83 E.43896
G3 X21.977 Y73.084 I10.419 J.042 E.41429
M204 P1000
G1 E-2.24 F4200
;WIPE_START
G1 F7200
G1 X22.034 Y73.067 E-.03296
G3 X23.667 Y72.714 I3.01 J9.975 E-.92704
;WIPE_END
G1 Z.4 F720
M486 S0
G1 X159.42 Y77.307 F9000
G1 Z.2 F720
G1 E3.2 F2400
M204 P600
;TYPE:Perimeter
;WIDTH:0.419999
G1 F1200
G3 X162.213 Y83.178 I-4.431 J5.708 E.21144
G1 X162.213 Y96.983 E.43285
G3 X154.983 Y104.213 I-7.226 J.004 E.35614
G1 X25.017 Y104.213 E4.07499
G3 X17.787 Y96.983 I-.004 J-7.226 E.35614
G1 X17.787 Y83.017 E.43789
G3 X25.017 Y75.787 I7.227 J-.003 E.35613
M73 P2 R36
G1 X155.025 Y75.789 E4.0763
G3 X159.373 Y77.271 I-.036 J7.226 E.14657
M204 P1000
G1 X159.373 Y77.271 F9000
G1 X159.647 Y77.014
M204 P600
;TYPE:External perimeter
G1 F1200
G3 X162.575 Y82.669 I-4.674 J6.006 E.206
G1 X162.59 Y83.178 E.01597
G1 X162.59 Y96.991 E.4331
G3 X154.991 Y104.59 I-7.602 J-.003 E.37422
G1 X25.009 Y104.59 E4.07549
G3 X17.41 Y96.991 I.003 J-7.602 E.37422
G1 X17.41 Y83.009 E.4384
G3 X25.009 Y75.41 I7.603 J.004 E.37421
G1 X154.824 Y75.412 E4.07025
G3 X159.599 Y76.978 I.149 J7.608 E.16058
M73 P3 R36
M204 P1000
G1 E-2.24 F4200
;WIPE_START
G1 F7200
G1 X159.647 Y77.014 E-.03325
G3 X160.844 Y78.177 I-4.674 J6.006 E-.92675
;WIPE_END
G1 Z.4 F720
G1 X160.925 Y79.206 F9000
G1 Z.2 F720
G1 E3.2 F2400
M204 P600
;TYPE:Solid infill
;WIDTH:0.420593
G1 F1200
G2 X159.418 Y77.735 I-24.625 J23.732 E.06614
G2 X158.012 Y76.828 I-4.528 J5.467 E.05267
G1 X161.172 Y79.988 E.14034
G3 X161.531 Y80.88 I-5.175 J2.596 E.03023
G1 X157.12 Y76.469 E.1959
G2 X156.393 Y76.276 I-1.708 J4.963 E.02364
G1 X161.724 Y81.607 E.23676
G1 X161.826 Y82.243 E.02023
G1 X155.757 Y76.174 E.26953
G1 X155.184 Y76.136 E.01803
G1 X161.864 Y82.816 E.29667
G1 X161.874 Y83.359 E.01706
G1 X154.643 Y76.128 E.32114
G1 X154.108 Y76.128 E.0168
G1 X161.874 Y83.893 E.34488
G1 X161.874 Y84.428 E.0168
G1 X153.574 Y76.128 E.36862
G1 X153.04 Y76.128 E.01677
G1 X161.874 Y84.962 E.39233
G1 X161.874 Y85.496 E.01677
G1 X152.506 Y76.128 E.41605
G1 X151.972 Y76.128 E.01677
G1 X161.874 Y86.03 E.43976
G1 X161.874 Y86.564 E.01677
G1 X151.438 Y76.128 E.46348
G1 X150.904 Y76.128 E.01677
M73 P3 R35
G1 X161.874 Y87.098 E.48719
G1 X161.874 Y87.632 E.01677
G1 X150.37 Y76.128 E.51091
G1 X149.835 Y76.128 E.0168
G1 X161.874 Y88.166 E.53465
G1 X161.874 Y88.7 E.01677
G1 X149.301 Y76.128 E.55836
G1 X148.767 Y76.128 E.01677
G1 X161.874 Y89.235 E.5821
G1 X161.874 Y89.769 E.01677
G1 X148.233 Y76.128 E.60582
G1 X147.699 Y76.128 E.01677
G1 X161.874 Y90.303 E.62953
G1 X161.874 Y90.837 E.01677
G1 X147.165 Y76.128 E.65325
G1 X146.631 Y76.128 E.01677
G1 X161.874 Y91.371 E.67696
G1 X161.874 Y91.905 E.01677
G1 X146.097 Y76.128 E.70068
G1 X145.563 Y76.128 E.01677
G1 X161.874 Y92.439 E.7244
G1 X161.874 Y92.973 E.01677
G1 X145.028 Y76.128 E.74813
G1 X144.494 Y76.128 E.01677
G1 X161.874 Y93.507 E.77185
G1 X161.874 Y94.041 E.01677
M73 P4 R35
G1 X143.96 Y76.128 E.79556
G1 X143.426 Y76.128 E.01677
G1 X161.874 Y94.576 E.8193
G1 X161.874 Y95.11 E.01677
G1 X142.892 Y76.128 E.84302
G1 X142.358 Y76.128 E.01677
G1 X161.874 Y95.644 E.86673
G1 X161.874 Y96.178 E.01677
G1 X141.824 Y76.128 E.89045
G1 X141.29 Y76.128 E.01677
G1 X161.874 Y96.712 E.91417
G1 X161.862 Y97.235 E.01643
G1 X140.755 Y76.128 E.93739
G1 X140.221 Y76.128 E.01677
G1 X161.828 Y97.735 E.9596
G1 X161.765 Y98.206 E.01492
G1 X139.687 Y76.128 E.98052
G1 X139.153 Y76.128 E.01677
G1 X161.668 Y98.643 E.99992
G1 X161.55 Y99.059 E.01358
G1 X138.619 Y76.128 E1.0184
G1 X138.085 Y76.128 E.01677
G1 X161.414 Y99.457 E1.03607
G1 X161.257 Y99.835 E.01285
G1 X137.551 Y76.128 E1.05284
G1 X137.017 Y76.128 E.01677
G1 X161.079 Y100.191 E1.06865
G1 X160.889 Y100.535 E.01234
G1 X136.483 Y76.128 E1.08393
G1 X135.948 Y76.128 E.0168
M73 P5 R35
G1 X160.681 Y100.861 E1.09843
G1 X160.455 Y101.169 E.012
G1 X135.414 Y76.128 E1.11211
G1 X134.88 Y76.128 E.01677
G1 X160.219 Y101.467 E1.12534
G1 X159.964 Y101.746 E.01187
G1 X134.346 Y76.128 E1.13773
G1 X133.812 Y76.128 E.01677
G1 X159.695 Y102.011 E1.1495
G1 X159.416 Y102.266 E.01187
G1 X133.278 Y76.128 E1.16083
G1 X132.744 Y76.128 E.01677
G1 X159.114 Y102.498 E1.17113
G1 X158.801 Y102.719 E.01203
G1 X132.21 Y76.128 E1.18094
G1 X131.675 Y76.128 E.0168
G1 X158.475 Y102.927 E1.1902
G1 X158.126 Y103.113 E.01242
G1 X131.141 Y76.128 E1.19844
G1 X130.607 Y76.128 E.01677
G1 X157.765 Y103.286 E1.20613
G1 X157.388 Y103.443 E.01282
G1 X130.073 Y76.128 E1.2131
G1 X129.539 Y76.128 E.01677
M73 P6 R35
G1 X156.985 Y103.573 E1.21889
G1 X156.563 Y103.686 E.01372
M73 P6 R34
G1 X129.005 Y76.128 E1.22389
G1 X128.471 Y76.128 E.01677
G1 X156.121 Y103.778 E1.22798
G1 X155.649 Y103.84 E.01495
G1 X127.937 Y76.128 E1.23073
G1 X127.403 Y76.128 E.01677
G1 X155.141 Y103.866 E1.23188
G1 X154.614 Y103.874 E.01655
G1 X126.868 Y76.128 E1.23224
G1 X126.334 Y76.128 E.01677
G1 X154.08 Y103.874 E1.23224
G1 X153.546 Y103.874 E.01677
G1 X125.8 Y76.128 E1.23224
G1 X125.266 Y76.128 E.01677
G1 X153.012 Y103.874 E1.23224
G1 X152.478 Y103.874 E.01677
G1 X124.732 Y76.128 E1.23224
G1 X124.198 Y76.128 E.01677
G1 X151.944 Y103.874 E1.23224
G1 X151.409 Y103.874 E.0168
M73 P7 R34
G1 X123.664 Y76.128 E1.23222
G1 X123.13 Y76.128 E.01677
G1 X150.875 Y103.874 E1.23222
G1 X150.341 Y103.874 E.01677
G1 X122.595 Y76.128 E1.23224
G1 X122.061 Y76.128 E.01677
G1 X149.807 Y103.874 E1.23224
G1 X149.273 Y103.874 E.01677
G1 X121.527 Y76.128 E1.23224
G1 X120.993 Y76.128 E.01677
G1 X148.739 Y103.874 E1.23224
G1 X148.205 Y103.874 E.01677
G1 X120.459 Y76.128 E1.23224
G1 X119.925 Y76.128 E.01677
G1 X147.671 Y103.874 E1.23224
G1 X147.137 Y103.874 E.01677
G1 X119.391 Y76.128 E1.23224
G1 X118.857 Y76.128 E.01677
G1 X146.602 Y103.874 E1.23222
G1 X146.068 Y103.874 E.01677
G1 X118.323 Y76.128 E1.23222
G1 X117.788 Y76.128 E.0168
M73 P8 R34
G1 X145.534 Y103.874 E1.23224
G1 X145 Y103.874 E.01677
G1 X117.254 Y76.128 E1.23224
G1 X116.72 Y76.128 E.01677
G1 X144.466 Y103.874 E1.23224
G1 X143.932 Y103.874 E.01677
G1 X116.186 Y76.128 E1.23224
G1 X115.652 Y76.128 E.01677
G1 X143.398 Y103.874 E1.23224
G1 X142.864 Y103.874 E.01677
G1 X115.118 Y76.128 E1.23224
G1 X114.584 Y76.128 E.01677
G1 X142.33 Y103.874 E1.23224
G1 X141.795 Y103.874 E.0168
G1 X114.05 Y76.128 E1.23222
G1 X113.515 Y76.128 E.0168
G1 X141.261 Y103.874 E1.23224
G1 X140.727 Y103.874 E.01677
M73 P8 R33
G1 X112.981 Y76.128 E1.23224
G1 X112.447 Y76.128 E.01677
G1 X140.193 Y103.874 E1.23224
G1 X139.659 Y103.874 E.01677
M73 P9 R33
G1 X111.913 Y76.128 E1.23224
G1 X111.379 Y76.128 E.01677
G1 X139.125 Y103.874 E1.23224
G1 X138.591 Y103.874 E.01677
G1 X110.845 Y76.128 E1.23224
G1 X110.311 Y76.128 E.01677
G1 X138.057 Y103.874 E1.23224
G1 X137.523 Y103.874 E.01677
G1 X109.777 Y76.128 E1.23224
G1 X109.243 Y76.128 E.01677
G1 X136.988 Y103.874 E1.23222
G1 X136.454 Y103.874 E.01677
G1 X108.708 Y76.128 E1.23224
G1 X108.174 Y76.128 E.01677
G1 X135.92 Y103.874 E1.23224
G1 X135.386 Y103.874 E.01677
G1 X107.64 Y76.128 E1.23224
G1 X107.106 Y76.128 E.01677
G1 X134.852 Y103.874 E1.23224
G1 X134.318 Y103.874 E.01677
G1 X106.572 Y76.128 E1.23224
G1 X106.038 Y76.128 E.01677
M73 P10 R33
G1 X133.784 Y103.874 E1.23224
G1 X133.25 Y103.874 E.01677
G1 X105.504 Y76.128 E1.23224
G1 X104.97 Y76.128 E.01677
G1 X132.716 Y103.874 E1.23224
G1 X132.181 Y103.874 E.0168
G1 X104.435 Y76.128 E1.23224
G1 X103.901 Y76.128 E.01677
G1 X131.647 Y103.874 E1.23224
G1 X131.113 Y103.874 E.01677
G1 X103.367 Y76.128 E1.23224
G1 X102.833 Y76.128 E.01677
G1 X130.579 Y103.874 E1.23224
G1 X130.045 Y103.874 E.01677
G1 X102.299 Y76.128 E1.23224
G1 X101.765 Y76.128 E.01677
G1 X129.511 Y103.874 E1.23224
G1 X128.977 Y103.874 E.01677
G1 X101.231 Y76.128 E1.23224
G1 X100.697 Y76.128 E.01677
G1 X128.443 Y103.874 E1.23224
G1 X127.909 Y103.874 E.01677
M73 P11 R33
G1 X100.163 Y76.128 E1.23224
G1 X99.628 Y76.128 E.0168
G1 X127.374 Y103.874 E1.23224
G1 X126.84 Y103.874 E.01677
G1 X99.094 Y76.127 E1.23226
G1 X98.56 Y76.127 E.01677
G1 X126.306 Y103.874 E1.23226
G1 X125.772 Y103.874 E.01677
G1 X98.026 Y76.127 E1.23226
G1 X97.492 Y76.127 E.01677
M73 P11 R32
G1 X125.238 Y103.874 E1.23226
G1 X124.704 Y103.874 E.01677
G1 X96.958 Y76.127 E1.23226
G1 X96.424 Y76.127 E.01677
G1 X124.17 Y103.874 E1.23226
G1 X123.636 Y103.874 E.01677
G1 X95.89 Y76.127 E1.23226
G1 X95.355 Y76.127 E.0168
G1 X123.102 Y103.874 E1.23228
G1 X122.567 Y103.874 E.0168
G1 X94.821 Y76.127 E1.23226
G1 X94.287 Y76.127 E.01677
G1 X122.033 Y103.874 E1.23226
G1 X121.499 Y103.874 E.01677
M73 P12 R32
G1 X93.753 Y76.127 E1.23226
G1 X93.219 Y76.127 E.01677
G1 X120.965 Y103.874 E1.23226
G1 X120.431 Y103.874 E.01677
G1 X92.685 Y76.127 E1.23226
G1 X92.151 Y76.127 E.01677
G1 X119.897 Y103.874 E1.23226
G1 X119.363 Y103.874 E.01677
G1 X91.617 Y76.127 E1.23226
G1 X91.083 Y76.127 E.01677
G1 X118.829 Y103.874 E1.23226
G1 X118.295 Y103.874 E.01677
G1 X90.548 Y76.127 E1.23228
G1 X90.014 Y76.127 E.01677
G1 X117.76 Y103.874 E1.23226
G1 X117.226 Y103.874 E.01677
G1 X89.48 Y76.127 E1.23226
G1 X88.946 Y76.127 E.01677
G1 X116.692 Y103.874 E1.23226
G1 X116.158 Y103.874 E.01677
G1 X88.412 Y76.127 E1.23226
G1 X87.878 Y76.127 E.01677
M73 P13 R32
G1 X115.624 Y103.874 E1.23226
G1 X115.09 Y103.874 E.01677
G1 X87.344 Y76.127 E1.23226
G1 X86.81 Y76.127 E.01677
G1 X114.556 Y103.874 E1.23226
G1 X114.022 Y103.874 E.01677
G1 X86.275 Y76.127 E1.23228
G1 X85.741 Y76.127 E.01677
G1 X113.488 Y103.874 E1.23228
G1 X112.953 Y103.874 E.0168
G1 X85.207 Y76.127 E1.23226
G1 X84.673 Y76.127 E.01677
G1 X112.419 Y103.874 E1.23226
G1 X111.885 Y103.874 E.01677
G1 X84.139 Y76.127 E1.23226
G1 X83.605 Y76.127 E.01677
G1 X111.351 Y103.874 E1.23226
G1 X110.817 Y103.874 E.01677
G1 X83.071 Y76.127 E1.23226
G1 X82.537 Y76.127 E.01677
G1 X110.283 Y103.874 E1.23226
G1 X109.749 Y103.874 E.01677
M73 P14 R32
G1 X82.003 Y76.127 E1.23226
G1 X81.468 Y76.127 E.0168
M73 P14 R31
G1 X109.215 Y103.874 E1.23228
G1 X108.681 Y103.874 E.01677
G1 X80.934 Y76.127 E1.23228
G1 X80.4 Y76.127 E.01677
G1 X108.146 Y103.874 E1.23226
G1 X107.612 Y103.874 E.01677
G1 X79.866 Y76.127 E1.23226
G1 X79.332 Y76.127 E.01677
G1 X107.078 Y103.874 E1.23226
G1 X106.544 Y103.874 E.01677
G1 X78.798 Y76.127 E1.23226
G1 X78.264 Y76.127 E.01677
G1 X106.01 Y103.874 E1.23226
G1 X105.476 Y103.874 E.01677
G1 X77.73 Y76.127 E1.23226
G1 X77.195 Y76.127 E.0168
G1 X104.942 Y103.874 E1.23228
G1 X104.408 Y103.874 E.01677
G1 X76.661 Y76.127 E1.23228
G1 X76.127 Y76.127 E.01677
M73 P15 R31
G1 X103.874 Y103.874 E1.23228
G1 X103.339 Y103.874 E.0168
G1 X75.593 Y76.127 E1.23226
G1 X75.059 Y76.127 E.01677
G1 X102.805 Y103.874 E1.23226
G1 X102.271 Y103.874 E.01677
G1 X74.525 Y76.127 E1.23226
G1 X73.991 Y76.127 E.01677
G1 X101.737 Y103.874 E1.23226
G1 X101.203 Y103.874 E.01677
G1 X73.457 Y76.127 E1.23226
G1 X72.923 Y76.127 E.01677
G1 X100.669 Y103.874 E1.23226
G1 X100.135 Y103.874 E.01677
G1 X72.388 Y76.127 E1.23228
G1 X71.854 Y76.127 E.01677
G1 X99.601 Y103.874 E1.23228
G1 X99.067 Y103.874 E.01677
G1 X71.32 Y76.127 E1.23228
G1 X70.786 Y76.127 E.01677
G1 X98.533 Y103.874 E1.23228
G1 X97.998 Y103.874 E.0168
M73 P16 R31
G1 X70.252 Y76.127 E1.23226
G1 X69.718 Y76.127 E.01677
G1 X97.464 Y103.874 E1.23226
G1 X96.93 Y103.874 E.01677
G1 X69.184 Y76.127 E1.23226
G1 X68.65 Y76.127 E.01677
G1 X96.396 Y103.874 E1.23226
G1 X95.862 Y103.874 E.01677
G1 X68.115 Y76.127 E1.23228
G1 X67.581 Y76.127 E.01677
G1 X95.328 Y103.874 E1.23228
G1 X94.794 Y103.874 E.01677
G1 X67.047 Y76.127 E1.23228
G1 X66.513 Y76.127 E.01677
G1 X94.26 Y103.874 E1.23228
G1 X93.726 Y103.874 E.01677
G1 X65.979 Y76.127 E1.23228
G1 X65.445 Y76.127 E.01677
M73 P16 R30
G1 X93.191 Y103.874 E1.23226
G1 X92.657 Y103.874 E.01677
G1 X64.911 Y76.127 E1.23226
G1 X64.377 Y76.127 E.01677
M73 P17 R30
G1 X92.123 Y103.874 E1.23226
G1 X91.589 Y103.874 E.01677
G1 X63.843 Y76.127 E1.23226
G1 X63.308 Y76.127 E.0168
G1 X91.055 Y103.874 E1.23228
G1 X90.521 Y103.874 E.01677
G1 X62.774 Y76.127 E1.23228
G1 X62.24 Y76.127 E.01677
G1 X89.987 Y103.874 E1.23228
G1 X89.453 Y103.874 E.01677
G1 X61.706 Y76.127 E1.23228
G1 X61.172 Y76.127 E.01677
G1 X88.919 Y103.874 E1.23228
G1 X88.384 Y103.874 E.0168
G1 X60.638 Y76.127 E1.23226
G1 X60.104 Y76.127 E.01677
G1 X87.85 Y103.874 E1.23226
G1 X87.316 Y103.874 E.01677
G1 X59.57 Y76.127 E1.23226
G1 X59.035 Y76.127 E.0168
G1 X86.782 Y103.874 E1.23228
G1 X86.248 Y103.874 E.01677
M73 P18 R30
G1 X58.501 Y76.127 E1.23228
G1 X57.967 Y76.127 E.01677
G1 X85.714 Y103.874 E1.23228
G1 X85.18 Y103.874 E.01677
G1 X57.433 Y76.127 E1.23228
G1 X56.899 Y76.127 E.01677
G1 X84.646 Y103.874 E1.23228
G1 X84.112 Y103.874 E.01677
G1 X56.365 Y76.127 E1.23228
G1 X55.831 Y76.127 E.01677
G1 X83.577 Y103.874 E1.23226
G1 X83.043 Y103.874 E.01677
G1 X55.297 Y76.127 E1.23226
G1 X54.763 Y76.127 E.01677
G1 X82.509 Y103.874 E1.23226
G1 X81.975 Y103.874 E.01677
G1 X54.228 Y76.127 E1.23228
G1 X53.694 Y76.127 E.01677
G1 X81.441 Y103.874 E1.23228
G1 X80.907 Y103.874 E.01677
G1 X53.16 Y76.127 E1.23228
G1 X52.626 Y76.127 E.01677
G1 X80.373 Y103.874 E1.23228
G1 X79.839 Y103.874 E.01677
M73 P19 R30
G1 X52.092 Y76.127 E1.23228
G1 X51.558 Y76.127 E.01677
G1 X79.305 Y103.874 E1.23228
G1 X78.77 Y103.874 E.0168
G1 X51.024 Y76.127 E1.23226
G1 X50.49 Y76.127 E.01677
G1 X78.236 Y103.874 E1.23226
G1 X77.702 Y103.874 E.01677
G1 X49.955 Y76.127 E1.23228
G1 X49.421 Y76.127 E.01677
M73 P19 R29
G1 X77.168 Y103.874 E1.23228
G1 X76.634 Y103.874 E.01677
G1 X48.887 Y76.127 E1.23228
G1 X48.353 Y76.127 E.01677
G1 X76.1 Y103.874 E1.23228
G1 X75.566 Y103.874 E.01677
G1 X47.819 Y76.127 E1.23228
G1 X47.285 Y76.127 E.01677
G1 X75.032 Y103.874 E1.23228
G1 X74.498 Y103.874 E.01677
G1 X46.751 Y76.127 E1.23228
G1 X46.217 Y76.127 E.01677
M73 P20 R29
G1 X73.963 Y103.874 E1.23226
G1 X73.429 Y103.874 E.01677
G1 X45.683 Y76.127 E1.23226
G1 X45.148 Y76.127 E.0168
G1 X72.895 Y103.874 E1.23228
G1 X72.361 Y103.874 E.01677
G1 X44.614 Y76.127 E1.23228
G1 X44.08 Y76.127 E.01677
G1 X71.827 Y103.874 E1.23228
G1 X71.293 Y103.874 E.01677
G1 X43.546 Y76.127 E1.23228
G1 X43.012 Y76.127 E.01677
G1 X70.759 Y103.874 E1.23228
G1 X70.225 Y103.874 E.01677
G1 X42.478 Y76.127 E1.23228
G1 X41.944 Y76.127 E.01677
G1 X69.691 Y103.874 E1.23228
G1 X69.156 Y103.874 E.0168
G1 X41.41 Y76.127 E1.23226
G1 X40.875 Y76.127 E.0168
