; generated by PrusaSlicer 2.7.4+MacOS-arm64 on 2024-11-14 at 21:22:45 UTC


;
;

;
;

;
;

;
;
; 

; external perimeters extrusion width = 0.45mm
; perimeters extrusion width = 0.45mm
; infill extrusion width = 0.45mm
; solid infill extrusion width = 0.45mm
; top infill extrusion width = 0.40mm
; first layer extrusion width = 0.42mm

M73 P0 R33
M201 X2500 Y2500 Z400 E5000 ; sets maximum accelerations, mm/sec^2
M203 X180 Y180 Z12 E80 ; sets maximum feedrates, mm / sec
M204 P2000 R1250 T2500 ; sets acceleration (P, T) and retract acceleration (R), mm/sec^2
M205 X8.00 Y8.00 Z2.00 E10.00 ; sets the jerk limits, mm/sec
M205 S0 T0 ; sets the minimum extruding and travel feed rate, mm/sec

M486 S0
M486 ACover_73x60x35.stl
M486 S-1

;TYPE:Custom
M862.3 P "MINI" ; printer model check
G90 ; use absolute coordinates
M83 ; extruder relative mode
M104 S170 ; set extruder temp for bed leveling
M140 S60 ; set bed temp
M109 R170 ; wait for bed leveling temp
M190 S60 ; wait for bed temp
M204 T1250 ; set travel acceleration
G28 ; home all without mesh bed level
G29 ; mesh bed leveling 
M204 T2500 ; restore travel acceleration
M104 S215 ; set extruder temp
G92 E0
G1 Y-2 X179 F2400
G1 Z3 F720
M109 S215 ; wait for extruder temp

; intro line
G1 X170 F1000
G1 Z0.2 F720
G1 X110 E8 F900
G1 X40 E10 F700
G92 E0

M221 S95 ; set flow
G21 ; set units to millimeters
G90 ; use absolute coordinates
M83 ; use relative distances for extrusion

M900 K0.2 ; Filament gcode LA 1.5
; ; Filament gcode LA 1.0




M107
;LAYER_CHANGE
;Z:0.2
;HEIGHT:0.2
G1 E-3.2 F4200
G1 Z.4 F720
G1 X54.561 Y60.318 F9000
G1 Z.2 F720
G1 E3.2 F2400
M204 P600
;TYPE:Skirt/Brim
;WIDTH:0.42
G1 F1200
G3 X60.699 Y57.656 I7.007 J7.747 E.21353
G1 X118.5 Y57.623 E1.81231
G1 X120.404 Y57.801 E.05996
G3 X128.877 Y68 I-1.976 J10.26 E.45037
M73 P1 R33
G1 X128.844 Y112.801 E1.4047
G3 X119.301 Y122.344 I-10.422 J-.879 E.45993
G1 X61.5 Y122.377 E1.81231
G3 X51.156 Y112.801 I.064 J-10.444 E.48513
G1 X51.123 Y68 E1.4047
G3 X54.517 Y60.359 I10.445 J.065 E.26971
M204 P1000
G1 E-2.24 F4200
;WIPE_START
G1 F7200
G1 X54.561 Y60.318 E-.03333
G3 X55.885 Y59.3 I7.007 J7.747 E-.92667
;WIPE_END
G1 Z.4 F720
M486 S0
G1 X54.532 Y66.146 F9000
G1 Z.2 F720
G1 E3.2 F2400
M204 P600
;TYPE:Perimeter
;WIDTH:0.419999
G1 F1200
G3 X61.517 Y60.787 I6.981 J1.867 E.29682
G1 X118.525 Y60.789 E1.78744
G3 X125.713 Y68.178 I-.036 J7.226 E.35987
G1 X125.713 Y111.983 E1.37347
G3 X118.483 Y119.213 I-7.226 J.004 E.35614
G1 X61.517 Y119.213 E1.78613
G3 X54.287 Y111.983 I-.004 J-7.226 E.35614
G1 X54.287 Y68.017 E1.37852
G3 X54.517 Y66.204 I7.226 J-.004 E.05745
M73 P2 R33
M204 P1000
G1 X54.517 Y66.204 F9000
G1 X54.165 Y66.059
M204 P600
;TYPE:External perimeter
G1 F1200
G3 X61.509 Y60.41 I7.348 J1.954 E.31238
G1 X118.324 Y60.412 E1.78139
G3 X126.075 Y67.669 I.149 J7.608 E.36845
M73 P2 R32
G1 X126.09 Y68.178 E.01597
G1 X126.09 Y111.991 E1.37372
G3 X118.491 Y119.59 I-7.602 J-.003 E.37421
G1 X61.509 Y119.59 E1.78663
G3 X53.91 Y111.991 I.003 J-7.602 E.37422
G1 X53.91 Y68.009 E1.37902
G3 X54.15 Y66.117 I7.603 J.004 E.05996
M204 P1000
G1 E-2.24 F4200
;WIPE_START
G1 F7200
G1 X54.165 Y66.059 E-.0332
G3 X54.768 Y64.503 I7.347 J1.954 E-.9268
;WIPE_END
G1 Z.4 F720
G1 X122.292 Y62.074 F9000
G1 Z.2 F720
G1 E3.2 F2400
M204 P600
;TYPE:Solid infill
;WIDTH:0.421416
G1 F1200
G3 X123.765 Y63.582 I-23.961 J24.859 E.06635
G3 X124.674 Y64.991 I-5.474 J4.533 E.05289
G1 X121.509 Y61.826 E.14087
G2 X120.616 Y61.468 I-2.601 J5.198 E.03031
G1 X125.032 Y65.884 E.19655
G3 X125.225 Y66.613 I-4.975 J1.708 E.02375
G1 X119.887 Y61.275 E.23758
G1 X119.251 Y61.174 E.02027
G1 X125.326 Y67.249 E.27039
G1 X125.365 Y67.823 E.01811
G1 X118.677 Y61.135 E.29767
G1 X118.135 Y61.128 E.01706
G1 X125.374 Y68.367 E.3222
G1 X125.374 Y68.902 E.01684
G1 X117.6 Y61.128 E.34601
G1 X117.064 Y61.128 E.01687
G1 X125.374 Y69.437 E.36984
G1 X125.374 Y69.973 E.01687
G1 X116.529 Y61.128 E.39368
G1 X115.994 Y61.128 E.01684
G1 X125.374 Y70.508 E.41749
G1 X125.374 Y71.043 E.01684
M73 P3 R32
G1 X115.459 Y61.128 E.4413
G1 X114.923 Y61.128 E.01687
G1 X125.374 Y71.579 E.46516
G1 X125.374 Y72.114 E.01684
G1 X114.388 Y61.128 E.48897
G1 X113.853 Y61.128 E.01684
G1 X125.374 Y72.649 E.51278
G1 X125.374 Y73.184 E.01684
G1 X113.317 Y61.128 E.53661
G1 X112.782 Y61.128 E.01684
G1 X125.374 Y73.72 E.56045
G1 X125.374 Y74.255 E.01684
G1 X112.247 Y61.128 E.58426
G1 X111.711 Y61.128 E.01687
G1 X125.374 Y74.79 E.60809
G1 X125.374 Y75.325 E.01684
G1 X111.176 Y61.128 E.63191
G1 X110.641 Y61.128 E.01684
G1 X125.374 Y75.861 E.65574
G1 X125.374 Y76.396 E.01684
G1 X110.106 Y61.128 E.67955
G1 X109.57 Y61.128 E.01687
G1 X125.374 Y76.931 E.70339
G1 X125.374 Y77.467 E.01687
G1 X109.035 Y61.128 E.72722
G1 X108.5 Y61.128 E.01684
G1 X125.374 Y78.002 E.75103
G1 X125.374 Y78.537 E.01684
G1 X107.964 Y61.128 E.77487
G1 X107.429 Y61.128 E.01684
G1 X125.374 Y79.072 E.79868
G1 X125.374 Y79.608 E.01687
G1 X106.894 Y61.128 E.82251
G1 X106.359 Y61.128 E.01684
G1 X125.374 Y80.143 E.84632
G1 X125.374 Y80.678 E.01684
G1 X105.823 Y61.128 E.87016
G1 X105.288 Y61.128 E.01684
M73 P4 R32
G1 X125.374 Y81.213 E.89397
G1 X125.374 Y81.749 E.01687
G1 X104.753 Y61.128 E.9178
G1 X104.217 Y61.128 E.01687
G1 X125.374 Y82.284 E.94164
G1 X125.374 Y82.819 E.01684
G1 X103.682 Y61.128 E.96545
G1 X103.147 Y61.128 E.01684
G1 X125.374 Y83.355 E.98928
G1 X125.374 Y83.89 E.01684
G1 X102.612 Y61.128 E1.0131
G1 X102.076 Y61.128 E.01687
G1 X125.374 Y84.425 E1.03693
G1 X125.374 Y84.96 E.01684
G1 X101.541 Y61.128 E1.06074
G1 X101.006 Y61.128 E.01684
G1 X125.374 Y85.496 E1.08458
G1 X125.374 Y86.031 E.01684
G1 X100.47 Y61.128 E1.10841
G1 X99.935 Y61.128 E.01684
G1 X125.374 Y86.566 E1.13222
G1 X125.374 Y87.101 E.01684
G1 X99.4 Y61.128 E1.15603
G1 X98.864 Y61.128 E.01687
M73 P5 R32
G1 X125.374 Y87.637 E1.17989
G1 X125.374 Y88.172 E.01684
G1 X98.329 Y61.128 E1.2037
G1 X97.794 Y61.128 E.01684
M73 P5 R31
G1 X125.374 Y88.707 E1.22751
G1 X125.374 Y89.243 E.01687
G1 X97.259 Y61.128 E1.25135
G1 X96.723 Y61.128 E.01687
G1 X125.374 Y89.778 E1.27518
G1 X125.374 Y90.313 E.01684
G1 X96.188 Y61.128 E1.29899
G1 X95.653 Y61.128 E.01684
G1 X125.374 Y90.848 E1.32281
G1 X125.374 Y91.384 E.01687
G1 X95.117 Y61.128 E1.34666
G1 X94.582 Y61.128 E.01684
G1 X125.374 Y91.919 E1.37048
G1 X125.374 Y92.454 E.01684
G1 X94.047 Y61.127 E1.39431
G1 X93.512 Y61.127 E.01684
M73 P6 R31
G1 X125.374 Y92.989 E1.41812
G1 X125.374 Y93.525 E.01687
G1 X92.976 Y61.127 E1.44198
G1 X92.441 Y61.127 E.01684
G1 X125.374 Y94.06 E1.46579
G1 X125.374 Y94.595 E.01684
G1 X91.906 Y61.127 E1.4896
G1 X91.37 Y61.127 E.01687
G1 X125.374 Y95.131 E1.51346
G1 X125.374 Y95.666 E.01684
G1 X90.835 Y61.127 E1.53727
G1 X90.3 Y61.127 E.01684
G1 X125.374 Y96.201 E1.56108
G1 X125.374 Y96.736 E.01684
G1 X89.765 Y61.127 E1.58489
G1 X89.229 Y61.127 E.01687
M73 P7 R31
G1 X125.374 Y97.272 E1.60875
G1 X125.374 Y97.807 E.01684
G1 X88.694 Y61.127 E1.63256
G1 X88.159 Y61.127 E.01684
G1 X125.374 Y98.342 E1.65637
G1 X125.374 Y98.877 E.01684
G1 X87.623 Y61.127 E1.68021
G1 X87.088 Y61.127 E.01684
G1 X125.374 Y99.413 E1.70404
G1 X125.374 Y99.948 E.01684
G1 X86.553 Y61.127 E1.72785
G1 X86.017 Y61.127 E.01687
G1 X125.374 Y100.483 E1.75169
G1 X125.374 Y101.019 E.01687
G1 X85.482 Y61.127 E1.77552
G1 X84.947 Y61.127 E.01684
M73 P8 R31
G1 X125.374 Y101.554 E1.79933
M73 P8 R30
G1 X125.374 Y102.089 E.01684
G1 X84.412 Y61.127 E1.82315
G1 X83.876 Y61.127 E.01687
G1 X125.374 Y102.624 E1.84698
G1 X125.374 Y103.16 E.01687
G1 X83.341 Y61.127 E1.87081
G1 X82.806 Y61.127 E.01684
G1 X125.374 Y103.695 E1.89463
G1 X125.374 Y104.23 E.01684
G1 X82.27 Y61.127 E1.91846
G1 X81.735 Y61.127 E.01684
G1 X125.374 Y104.766 E1.94229
G1 X125.374 Y105.301 E.01684
M73 P9 R30
G1 X81.2 Y61.127 E1.96611
G1 X80.665 Y61.127 E.01684
G1 X125.374 Y105.836 E1.98992
G1 X125.374 Y106.371 E.01684
G1 X80.129 Y61.127 E2.01375
G1 X79.594 Y61.127 E.01684
G1 X125.374 Y106.907 E2.03759
G1 X125.374 Y107.442 E.01684
G1 X79.059 Y61.127 E2.0614
G1 X78.523 Y61.127 E.01687
G1 X125.374 Y107.977 E2.08523
G1 X125.374 Y108.512 E.01684
M73 P10 R30
G1 X77.988 Y61.127 E2.10904
G1 X77.453 Y61.127 E.01684
G1 X125.374 Y109.048 E2.13288
G1 X125.374 Y109.583 E.01684
G1 X76.918 Y61.127 E2.15669
G1 X76.382 Y61.127 E.01687
G1 X125.374 Y110.118 E2.18052
G1 X125.374 Y110.654 E.01687
G1 X75.847 Y61.127 E2.20436
G1 X75.312 Y61.127 E.01684
G1 X125.374 Y111.189 E2.22817
G1 X125.374 Y111.724 E.01684
M73 P11 R29
G1 X74.776 Y61.127 E2.25201
G1 X74.241 Y61.127 E.01684
G1 X125.362 Y112.247 E2.27528
G1 X125.327 Y112.748 E.01581
G1 X73.706 Y61.127 E2.29756
G1 X73.17 Y61.127 E.01687
G1 X125.262 Y113.219 E2.31852
G1 X125.165 Y113.657 E.01412
G1 X72.635 Y61.127 E2.33802
G1 X72.1 Y61.127 E.01684
M73 P12 R29
G1 X125.046 Y114.073 E2.35653
G1 X124.907 Y114.469 E.01321
G1 X71.565 Y61.127 E2.37416
G1 X71.029 Y61.127 E.01687
G1 X124.751 Y114.849 E2.39107
G1 X124.572 Y115.205 E.01254
G1 X70.494 Y61.127 E2.40692
G1 X69.959 Y61.127 E.01684
G1 X124.38 Y115.548 E2.42218
G1 X124.172 Y115.875 E.0122
M73 P13 R29
G1 X69.423 Y61.127 E2.43676
G1 X68.888 Y61.127 E.01684
G1 X123.945 Y116.183 E2.45047
G1 X123.707 Y116.481 E.012
G1 X68.353 Y61.127 E2.46371
G1 X67.818 Y61.127 E.01684
G1 X123.451 Y116.76 E2.47613
G1 X123.18 Y117.024 E.01191
G1 X67.282 Y61.127 E2.4879
G1 X66.747 Y61.127 E.01684
G1 X122.899 Y117.279 E2.49923
G1 X122.596 Y117.511 E.01201
M73 P14 R28
G1 X66.212 Y61.127 E2.50955
G1 X65.676 Y61.127 E.01687
G1 X122.282 Y117.732 E2.51941
G1 X121.955 Y117.94 E.0122
G1 X65.141 Y61.127 E2.52867
G1 X64.606 Y61.127 E.01684
G1 X121.604 Y118.125 E2.53688
G1 X121.24 Y118.296 E.01266
G1 X64.071 Y61.127 E2.54449
G1 X63.535 Y61.127 E.01687
M73 P15 R28
G1 X120.862 Y118.453 E2.5515
G1 X120.456 Y118.582 E.01341
G1 X63 Y61.126 E2.55726
G1 X62.465 Y61.126 E.01684
G1 X120.031 Y118.693 E2.56218
G1 X119.585 Y118.782 E.01431
G1 X61.929 Y61.126 E2.56617
G1 X61.404 Y61.136 E.01653
M73 P16 R28
G1 X119.112 Y118.845 E2.5685
G1 X118.6 Y118.868 E.01613
G1 X60.888 Y61.155 E2.56868
G1 X60.415 Y61.218 E.01502
G1 X118.071 Y118.874 E2.56617
G1 X117.535 Y118.874 E.01687
G1 X59.969 Y61.307 E2.56218
G1 X59.544 Y61.418 E.01382
G1 X117 Y118.874 E2.55726
G1 X116.465 Y118.874 E.01684
M73 P17 R27
G1 X59.138 Y61.547 E2.55152
G1 X58.759 Y61.704 E.01291
G1 X115.93 Y118.874 E2.54456
G1 X115.394 Y118.874 E.01687
G1 X58.396 Y61.875 E2.5369
G1 X58.045 Y62.06 E.01249
G1 X114.859 Y118.874 E2.52869
G1 X114.324 Y118.874 E.01684
G1 X57.718 Y62.268 E2.51943
G1 X57.404 Y62.489 E.01208
M73 P18 R27
G1 X113.788 Y118.874 E2.50957
G1 X113.253 Y118.874 E.01684
G1 X57.101 Y62.721 E2.49925
G1 X57.082 Y62.735 E.00074
G1 X56.82 Y62.976 E.0112
G1 X112.718 Y118.874 E2.48792
G1 X112.183 Y118.874 E.01684
G1 X56.55 Y63.241 E2.47613
G1 X56.295 Y63.521 E.01192
G1 X111.647 Y118.874 E2.46364
G1 X111.112 Y118.874 E.01684
M73 P19 R27
G1 X56.055 Y63.817 E2.45049
G1 X55.828 Y64.125 E.01204
G1 X110.577 Y118.874 E2.43678
G1 X110.042 Y118.874 E.01684
G1 X55.62 Y64.452 E2.42223
G1 X55.428 Y64.795 E.01237
G1 X109.506 Y118.874 E2.40694
G1 X108.971 Y118.874 E.01684
G1 X55.248 Y65.151 E2.39112
G1 X55.092 Y65.53 E.0129
M73 P19 R26
G1 X108.436 Y118.874 E2.37425
G1 X107.9 Y118.874 E.01687
M73 P20 R26
G1 X54.954 Y65.927 E2.35656
G1 X54.835 Y66.343 E.01362
G1 X107.365 Y118.874 E2.33804
G1 X106.83 Y118.874 E.01684
G1 X54.738 Y66.781 E2.31854
G1 X54.673 Y67.252 E.01496
G1 X106.295 Y118.874 E2.2976
G1 X105.759 Y118.874 E.01687
G1 X54.638 Y67.753 E2.27531
G1 X54.626 Y68.276 E.01646
M73 P21 R26
G1 X105.224 Y118.874 E2.25203
G1 X104.689 Y118.874 E.01684
G1 X54.626 Y68.811 E2.22822
G1 X54.626 Y69.347 E.01687
G1 X104.153 Y118.874 E2.20436
G1 X103.618 Y118.874 E.01684
G1 X54.626 Y69.882 E2.18055
G1 X54.626 Y70.417 E.01684
G1 X103.083 Y118.874 E2.15674
G1 X102.548 Y118.874 E.01684
G1 X54.626 Y70.952 E2.13292
G1 X54.626 Y71.488 E.01687
M73 P22 R26
G1 X102.012 Y118.874 E2.10907
G1 X101.477 Y118.874 E.01684
G1 X54.626 Y72.023 E2.08526
G1 X54.626 Y72.558 E.01684
G1 X100.942 Y118.874 E2.06144
G1 X100.407 Y118.874 E.01684
G1 X54.626 Y73.093 E2.03763
G1 X54.626 Y73.629 E.01687
G1 X99.871 Y118.874 E2.01377
G1 X99.336 Y118.874 E.01684
M73 P22 R25
G1 X54.626 Y74.164 E1.98996
G1 X54.626 Y74.699 E.01684
M73 P23 R25
G1 X98.801 Y118.874 E1.96615
G1 X98.265 Y118.874 E.01687
G1 X54.626 Y75.235 E1.94229
G1 X54.626 Y75.77 E.01684
G1 X97.73 Y118.874 E1.91848
G1 X97.195 Y118.874 E.01684
G1 X54.626 Y76.305 E1.89467
G1 X54.626 Y76.84 E.01684
G1 X96.66 Y118.874 E1.87086
G1 X96.124 Y118.874 E.01687
G1 X54.626 Y77.376 E1.847
G1 X54.626 Y77.911 E.01684
M73 P24 R25
G1 X95.589 Y118.874 E1.82319
G1 X95.054 Y118.874 E.01684
G1 X54.626 Y78.446 E1.79938
G1 X54.626 Y78.981 E.01684
G1 X94.519 Y118.874 E1.77557
G1 X93.983 Y118.874 E.01687
G1 X54.626 Y79.517 E1.75171
G1 X54.626 Y80.052 E.01684
G1 X93.448 Y118.874 E1.7279
G1 X92.913 Y118.874 E.01684
G1 X54.626 Y80.587 E1.70409
G1 X54.626 Y81.123 E.01687
G1 X92.377 Y118.874 E1.68023
G1 X91.842 Y118.874 E.01684
G1 X54.626 Y81.658 E1.65642
G1 X54.626 Y82.193 E.01684
M73 P25 R25
G1 X91.307 Y118.874 E1.63261
G1 X90.772 Y118.874 E.01684
G1 X54.626 Y82.728 E1.60879
G1 X54.626 Y83.264 E.01687
G1 X90.236 Y118.874 E1.58494
G1 X89.701 Y118.874 E.01684
G1 X54.626 Y83.799 E1.56113
G1 X54.626 Y84.334 E.01684
G1 X89.166 Y118.874 E1.53731
G1 X88.631 Y118.874 E.01684
G1 X54.626 Y84.869 E1.5135
G1 X54.626 Y85.405 E.01687
G1 X88.095 Y118.874 E1.48965
G1 X87.56 Y118.874 E.01684
M73 P26 R24
G1 X54.626 Y85.94 E1.46583
G1 X54.626 Y86.475 E.01684
G1 X87.025 Y118.874 E1.44202
G1 X86.489 Y118.874 E.01687
G1 X54.626 Y87.011 E1.41817
G1 X54.626 Y87.546 E.01684
G1 X85.954 Y118.874 E1.39435
G1 X85.419 Y118.874 E.01684
G1 X54.626 Y88.081 E1.37054
G1 X54.626 Y88.616 E.01684
G1 X84.884 Y118.874 E1.34673
G1 X84.348 Y118.874 E.01687
G1 X54.626 Y89.152 E1.32287
G1 X54.626 Y89.687 E.01684
G1 X83.813 Y118.874 E1.29906
G1 X83.278 Y118.874 E.01684
G1 X54.626 Y90.222 E1.27525
G1 X54.626 Y90.757 E.01684
G1 X82.743 Y118.874 E1.25144
G1 X82.207 Y118.874 E.01687
M73 P27 R24
G1 X54.626 Y91.293 E1.22758
G1 X54.626 Y91.828 E.01684
G1 X81.672 Y118.874 E1.20377
G1 X81.137 Y118.874 E.01684
G1 X54.626 Y92.363 E1.17996
G1 X54.626 Y92.899 E.01687
G1 X80.601 Y118.874 E1.1561
G1 X80.066 Y118.874 E.01684
G1 X54.626 Y93.434 E1.13229
G1 X54.626 Y93.969 E.01684
G1 X79.531 Y118.874 E1.10848
G1 X78.996 Y118.874 E.01684
G1 X54.626 Y94.504 E1.08467
G1 X54.626 Y95.04 E.01687
G1 X78.46 Y118.874 E1.06081
G1 X77.925 Y118.874 E.01684
G1 X54.626 Y95.575 E1.037
G1 X54.626 Y96.11 E.01684
G1 X77.39 Y118.874 E1.01319
G1 X76.855 Y118.874 E.01684
G1 X54.626 Y96.645 E.98937
G1 X54.626 Y97.181 E.01687
M73 P28 R24
G1 X76.319 Y118.874 E.96552
G1 X75.784 Y118.874 E.01684
G1 X54.626 Y97.716 E.94171
G1 X54.626 Y98.251 E.01684
G1 X75.249 Y118.874 E.91789
G1 X74.713 Y118.874 E.01687
G1 X54.626 Y98.787 E.89404
G1 X54.626 Y99.322 E.01684
G1 X74.178 Y118.874 E.87022
G1 X73.643 Y118.874 E.01684
G1 X54.626 Y99.857 E.84641
G1 X54.626 Y100.392 E.01684
G1 X73.108 Y118.874 E.8226
G1 X72.572 Y118.874 E.01687
G1 X54.626 Y100.928 E.79874
G1 X54.626 Y101.463 E.01684
G1 X72.037 Y118.874 E.77493
G1 X71.502 Y118.874 E.01684
G1 X54.626 Y101.998 E.75112
G1 X54.626 Y102.534 E.01687
G1 X70.967 Y118.874 E.72729
G1 X70.431 Y118.874 E.01687
G1 X54.626 Y103.069 E.70345
G1 X54.626 Y103.604 E.01684
M73 P28 R23
G1 X69.896 Y118.874 E.67964
G1 X69.361 Y118.874 E.01684
G1 X54.626 Y104.139 E.65583
G1 X54.626 Y104.675 E.01687
G1 X68.825 Y118.874 E.63197
G1 X68.29 Y118.874 E.01684
M73 P29 R23
G1 X54.626 Y105.21 E.60816
G1 X54.626 Y105.745 E.01684
G1 X67.755 Y118.874 E.58435
G1 X67.22 Y118.874 E.01684
G1 X54.626 Y106.28 E.56054
G1 X54.626 Y106.816 E.01687
G1 X66.684 Y118.874 E.53668
G1 X66.149 Y118.874 E.01684
G1 X54.626 Y107.351 E.51287
G1 X54.626 Y107.886 E.01684
G1 X65.614 Y118.874 E.48906
G1 X65.078 Y118.874 E.01687
G1 X54.626 Y108.422 E.4652
G1 X54.626 Y108.957 E.01684
G1 X64.543 Y118.874 E.44139
G1 X64.008 Y118.874 E.01684
G1 X54.626 Y109.492 E.41758
G1 X54.626 Y110.027 E.01684
G1 X63.473 Y118.874 E.39376
G1 X62.937 Y118.874 E.01687
G1 X54.626 Y110.563 E.36991
G1 X54.626 Y111.098 E.01684
G1 X62.402 Y118.874 E.3461
