; generated by PrusaSlicer 2.7.4+MacOS-arm64 on 2024-11-26 at 15:48:27 UTC


;
;

;
;

;
;

;
;
; 

; external perimeters extrusion width = 0.45mm
; perimeters extrusion width = 0.45mm
; infill extrusion width = 0.45mm
; solid infill extrusion width = 0.45mm
; top infill extrusion width = 0.40mm
; first layer extrusion width = 0.42mm

M73 P0 R89
M201 X2500 Y2500 Z400 E5000 ; sets maximum accelerations, mm/sec^2
M203 X180 Y180 Z12 E80 ; sets maximum feedrates, mm / sec
M204 P2000 R1250 T2500 ; sets acceleration (P, T) and retract acceleration (R), mm/sec^2
M205 X8.00 Y8.00 Z2.00 E10.00 ; sets the jerk limits, mm/sec
M205 S0 T0 ; sets the minimum extruding and travel feed rate, mm/sec

M486 S0
M486 ABox_146x30x27_2x1.stl
M486 S-1

;TYPE:Custom
M862.3 P "MINI" ; printer model check
G90 ; use absolute coordinates
M83 ; extruder relative mode
M104 S170 ; set extruder temp for bed leveling
M140 S60 ; set bed temp
M109 R170 ; wait for bed leveling temp
M190 S60 ; wait for bed temp
M204 T1250 ; set travel acceleration
G28 ; home all without mesh bed level
G29 ; mesh bed leveling 
M204 T2500 ; restore travel acceleration
M104 S215 ; set extruder temp
G92 E0
G1 Y-2 X179 F2400
G1 Z3 F720
M109 S215 ; wait for extruder temp

; intro line
G1 X170 F1000
G1 Z0.2 F720
G1 X110 E8 F900
G1 X40 E10 F700
G92 E0

M221 S95 ; set flow
G21 ; set units to millimeters
G90 ; use absolute coordinates
M83 ; use relative distances for extrusion

M900 K0.2 ; Filament gcode LA 1.5
; ; Filament gcode LA 1.0




M107
;LAYER_CHANGE
;Z:0.2
;HEIGHT:0.2
G1 E-3.2 F4200
G1 Z.4 F720
G1 X22.034 Y73.067 F9000
G1 Z.2 F720
G1 E3.2 F2400
M204 P600
;TYPE:Skirt/Brim
;WIDTH:0.42
G1 F1200
G3 X25 Y72.623 I3.009 J9.976 E.09436
G1 X155.104 Y72.625 E4.07932
G3 X165.344 Y82.199 I-.168 J10.443 E.48185
G1 X165.375 Y97.104 E.46734
G3 X155 Y107.377 I-10.416 J-.143 E.50726
G1 X24.199 Y107.344 E4.10117
G3 X14.623 Y97.003 I.87 J-10.409 E.48502
G1 X14.623 Y83 E.43905
G3 X21.977 Y73.084 I10.42 J.043 E.41429
M204 P1000
G1 E-2.24 F4200
;WIPE_START
G1 F7200
G1 X22.034 Y73.067 E-.03296
G3 X23.667 Y72.714 I3.01 J9.976 E-.92704
;WIPE_END
G1 Z.4 F720
M486 S0
G1 X17.899 Y98.252 F9000
G1 Z.2 F720
G1 E3.2 F2400
M204 P600
;TYPE:Perimeter
;WIDTH:0.419999
G1 F1200
G3 X17.787 Y96.983 I7.114 J-1.265 E.04
G1 X17.787 Y83.017 E.43789
G3 X25.017 Y75.787 I7.226 J-.004 E.35614
G1 X154.983 Y75.787 E4.07499
G3 X162.213 Y83.178 I.002 J7.23 E.3612
M73 P0 R88
G1 X162.213 Y96.983 E.43285
G3 X154.983 Y104.213 I-7.226 J.004 E.35614
G1 X25.017 Y104.213 E4.07499
G3 X17.909 Y98.311 I-.004 J-7.226 E.31428
M204 P1000
G1 X17.909 Y98.311 F9000
G1 X17.527 Y98.317
M204 P600
;TYPE:External perimeter
G1 F1200
G3 X17.41 Y96.991 I7.485 J-1.329 E.04179
G1 X17.41 Y83.009 E.4384
G3 X25.009 Y75.41 I7.602 J.003 E.37422
G1 X154.822 Y75.41 E4.07019
G3 X161.726 Y79.499 I.134 J7.646 E.26485
M73 P1 R88
G3 X162.59 Y83.178 I-7.06 J3.599 E.11964
G1 X162.59 Y96.991 E.4331
G3 X154.991 Y104.59 I-7.602 J-.003 E.37422
G1 X25.009 Y104.59 E4.07549
G3 X17.538 Y98.376 I.003 J-7.602 E.33054
M204 P1000
G1 E-2.24 F4200
;WIPE_START
G1 F7200
G1 X17.527 Y98.317 E-.03326
G3 X17.41 Y96.991 I7.485 J-1.329 E-.73863
G1 X17.41 Y96.652 E-.18811
;WIPE_END
G1 Z.4 F720
G1 X160.925 Y79.206 F9000
G1 Z.2 F720
G1 E3.2 F2400
M204 P600
;TYPE:Solid infill
;WIDTH:0.420593
G1 F1200
G2 X159.418 Y77.735 I-24.625 J23.733 E.06614
G2 X158.012 Y76.828 I-4.528 J5.467 E.05267
G1 X161.172 Y79.988 E.14034
G3 X161.531 Y80.88 I-5.176 J2.596 E.03023
G1 X157.12 Y76.469 E.1959
G2 X156.393 Y76.276 I-1.707 J4.963 E.02364
G1 X161.724 Y81.607 E.23676
G1 X161.826 Y82.243 E.02023
G1 X155.757 Y76.174 E.26953
G1 X155.188 Y76.139 E.0179
G1 X161.864 Y82.816 E.29651
G1 X161.874 Y83.359 E.01706
G1 X154.641 Y76.126 E.32123
G1 X154.107 Y76.126 E.01677
G1 X161.874 Y83.893 E.34494
G1 X161.874 Y84.428 E.0168
G1 X153.572 Y76.126 E.3687
G1 X153.038 Y76.126 E.01677
G1 X161.874 Y84.962 E.39242
G1 X161.874 Y85.496 E.01677
G1 X152.504 Y76.126 E.41614
G1 X151.97 Y76.126 E.01677
G1 X161.874 Y86.03 E.43985
G1 X161.874 Y86.564 E.01677
G1 X151.436 Y76.126 E.46357
G1 X150.902 Y76.126 E.01677
G1 X161.874 Y87.098 E.48728
G1 X161.874 Y87.632 E.01677
G1 X150.368 Y76.126 E.511
G1 X149.834 Y76.126 E.01677
G1 X161.874 Y88.166 E.53471
G1 X161.874 Y88.7 E.01677
G1 X149.3 Y76.126 E.55843
G1 X148.766 Y76.126 E.01677
G1 X161.874 Y89.235 E.58217
G1 X161.874 Y89.769 E.01677
G1 X148.231 Y76.126 E.60591
G1 X147.697 Y76.126 E.01677
G1 X161.874 Y90.303 E.62962
G1 X161.874 Y90.837 E.01677
G1 X147.163 Y76.126 E.65334
G1 X146.629 Y76.126 E.01677
G1 X161.874 Y91.371 E.67705
G1 X161.874 Y91.905 E.01677
G1 X146.095 Y76.126 E.70077
G1 X145.561 Y76.126 E.01677
G1 X161.874 Y92.439 E.72448
G1 X161.874 Y92.973 E.01677
G1 X145.027 Y76.126 E.7482
G1 X144.493 Y76.126 E.01677
G1 X161.874 Y93.507 E.77192
G1 X161.874 Y94.041 E.01677
G1 X143.959 Y76.126 E.79563
G1 X143.424 Y76.126 E.0168
G1 X161.874 Y94.576 E.81939
G1 X161.874 Y95.11 E.01677
G1 X142.89 Y76.126 E.84311
G1 X142.356 Y76.126 E.01677
G1 X161.874 Y95.644 E.86682
G1 X161.874 Y96.178 E.01677
G1 X141.822 Y76.126 E.89054
G1 X141.288 Y76.126 E.01677
G1 X161.874 Y96.712 E.91425
G1 X161.862 Y97.235 E.01643
G1 X140.754 Y76.126 E.93746
G1 X140.22 Y76.126 E.01677
M73 P1 R87
G1 X161.828 Y97.735 E.95966
G1 X161.765 Y98.206 E.01492
G1 X139.686 Y76.126 E.98058
G1 X139.152 Y76.126 E.01677
G1 X161.668 Y98.643 E.99999
G1 X161.55 Y99.059 E.01358
G1 X138.617 Y76.126 E1.01849
G1 X138.083 Y76.126 E.01677
G1 X161.414 Y99.457 E1.03616
G1 X161.257 Y99.835 E.01285
M73 P2 R87
G1 X137.549 Y76.126 E1.05293
G1 X137.015 Y76.126 E.01677
G1 X161.079 Y100.191 E1.06874
G1 X160.889 Y100.535 E.01234
G1 X136.481 Y76.126 E1.08402
G1 X135.947 Y76.126 E.01677
G1 X160.681 Y100.861 E1.0985
G1 X160.455 Y101.169 E.012
G1 X135.413 Y76.126 E1.11217
G1 X134.879 Y76.126 E.01677
G1 X160.219 Y101.467 E1.12541
G1 X159.964 Y101.746 E.01187
G1 X134.345 Y76.126 E1.1378
G1 X133.81 Y76.126 E.0168
G1 X159.695 Y102.011 E1.14959
G1 X159.416 Y102.266 E.01187
G1 X133.276 Y76.126 E1.16092
G1 X132.742 Y76.126 E.01677
G1 X159.114 Y102.498 E1.17122
G1 X158.801 Y102.719 E.01203
G1 X132.208 Y76.126 E1.18103
G1 X131.674 Y76.126 E.01677
G1 X158.475 Y102.927 E1.19027
G1 X158.126 Y103.113 E.01242
G1 X131.14 Y76.126 E1.19851
G1 X130.606 Y76.126 E.01677
G1 X157.765 Y103.286 E1.20619
G1 X157.388 Y103.443 E.01282
G1 X130.072 Y76.126 E1.21317
G1 X129.538 Y76.126 E.01677
G1 X156.985 Y103.573 E1.21896
G1 X156.563 Y103.686 E.01372
G1 X129.003 Y76.126 E1.22398
G1 X128.469 Y76.126 E.01677
G1 X156.121 Y103.778 E1.22807
G1 X155.649 Y103.84 E.01495
G1 X127.935 Y76.126 E1.23082
G1 X127.401 Y76.126 E.01677
G1 X155.141 Y103.866 E1.23197
G1 X154.614 Y103.874 E.01655
G1 X126.867 Y76.126 E1.23231
G1 X126.333 Y76.126 E.01677
G1 X154.08 Y103.874 E1.23231
G1 X153.546 Y103.874 E.01677
G1 X125.799 Y76.126 E1.23231
G1 X125.265 Y76.126 E.01677
G1 X153.012 Y103.874 E1.23231
G1 X152.478 Y103.874 E.01677
G1 X124.731 Y76.126 E1.23231
G1 X124.196 Y76.126 E.0168
G1 X151.944 Y103.874 E1.23233
G1 X151.409 Y103.874 E.0168
G1 X123.662 Y76.126 E1.23231
G1 X123.128 Y76.126 E.01677
M73 P2 R86
G1 X150.875 Y103.874 E1.23231
G1 X150.341 Y103.874 E.01677
M73 P3 R86
G1 X122.594 Y76.126 E1.23231
G1 X122.06 Y76.126 E.01677
G1 X149.807 Y103.874 E1.23231
G1 X149.273 Y103.874 E.01677
G1 X121.526 Y76.126 E1.23231
G1 X120.992 Y76.126 E.01677
G1 X148.739 Y103.874 E1.23231
G1 X148.205 Y103.874 E.01677
G1 X120.458 Y76.126 E1.23231
G1 X119.924 Y76.126 E.01677
G1 X147.671 Y103.874 E1.23231
G1 X147.137 Y103.874 E.01677
G1 X119.389 Y76.126 E1.23233
G1 X118.855 Y76.126 E.01677
G1 X146.602 Y103.874 E1.23231
G1 X146.068 Y103.874 E.01677
G1 X118.321 Y76.126 E1.23231
G1 X117.787 Y76.126 E.01677
G1 X145.534 Y103.874 E1.23231
G1 X145 Y103.874 E.01677
G1 X117.253 Y76.126 E1.23231
G1 X116.719 Y76.126 E.01677
G1 X144.466 Y103.874 E1.23231
G1 X143.932 Y103.874 E.01677
G1 X116.185 Y76.126 E1.23231
G1 X115.651 Y76.126 E.01677
G1 X143.398 Y103.874 E1.23231
G1 X142.864 Y103.874 E.01677
G1 X115.117 Y76.126 E1.23231
G1 X114.582 Y76.126 E.0168
G1 X142.33 Y103.874 E1.23233
G1 X141.795 Y103.874 E.0168
G1 X114.048 Y76.126 E1.23231
G1 X113.514 Y76.126 E.01677
G1 X141.261 Y103.874 E1.23231
G1 X140.727 Y103.874 E.01677
G1 X112.98 Y76.126 E1.23231
G1 X112.446 Y76.126 E.01677
G1 X140.193 Y103.874 E1.23231
G1 X139.659 Y103.874 E.01677
G1 X111.912 Y76.126 E1.23231
G1 X111.378 Y76.126 E.01677
G1 X139.125 Y103.874 E1.23231
G1 X138.591 Y103.874 E.01677
G1 X110.844 Y76.126 E1.23231
G1 X110.31 Y76.126 E.01677
G1 X138.057 Y103.874 E1.23231
G1 X137.523 Y103.874 E.01677
G1 X109.775 Y76.126 E1.23233
G1 X109.241 Y76.126 E.01677
G1 X136.988 Y103.874 E1.23231
G1 X136.454 Y103.874 E.01677
G1 X108.707 Y76.126 E1.23231
G1 X108.173 Y76.126 E.01677
M73 P4 R86
G1 X135.92 Y103.874 E1.23231
G1 X135.386 Y103.874 E.01677
G1 X107.639 Y76.126 E1.23231
G1 X107.105 Y76.126 E.01677
M73 P4 R85
G1 X134.852 Y103.874 E1.23231
G1 X134.318 Y103.874 E.01677
G1 X106.571 Y76.126 E1.23231
G1 X106.037 Y76.126 E.01677
G1 X133.784 Y103.874 E1.23231
G1 X133.25 Y103.874 E.01677
G1 X105.503 Y76.126 E1.23231
G1 X104.968 Y76.126 E.0168
G1 X132.716 Y103.874 E1.23233
G1 X132.181 Y103.874 E.0168
G1 X104.434 Y76.126 E1.23231
G1 X103.9 Y76.126 E.01677
G1 X131.647 Y103.874 E1.23231
G1 X131.113 Y103.874 E.01677
G1 X103.366 Y76.126 E1.23231
G1 X102.832 Y76.126 E.01677
G1 X130.579 Y103.874 E1.23231
G1 X130.045 Y103.874 E.01677
G1 X102.298 Y76.126 E1.23231
G1 X101.764 Y76.126 E.01677
G1 X129.511 Y103.874 E1.23231
G1 X128.977 Y103.874 E.01677
G1 X101.23 Y76.126 E1.23231
G1 X100.696 Y76.126 E.01677
G1 X128.443 Y103.874 E1.23231
G1 X127.909 Y103.874 E.01677
G1 X100.161 Y76.126 E1.23233
G1 X99.627 Y76.126 E.01677
G1 X127.374 Y103.874 E1.23231
G1 X126.84 Y103.874 E.01677
G1 X99.093 Y76.126 E1.23231
G1 X98.559 Y76.126 E.01677
G1 X126.306 Y103.874 E1.23231
G1 X125.772 Y103.874 E.01677
G1 X98.025 Y76.126 E1.23231
G1 X97.491 Y76.126 E.01677
G1 X125.238 Y103.874 E1.23231
G1 X124.704 Y103.874 E.01677
G1 X96.957 Y76.126 E1.23231
G1 X96.423 Y76.126 E.01677
G1 X124.17 Y103.874 E1.23231
G1 X123.636 Y103.874 E.01677
G1 X95.889 Y76.126 E1.23231
G1 X95.354 Y76.126 E.0168
G1 X123.102 Y103.874 E1.23233
G1 X122.567 Y103.874 E.0168
G1 X94.82 Y76.126 E1.23231
G1 X94.286 Y76.126 E.01677
G1 X122.033 Y103.874 E1.23231
G1 X121.499 Y103.874 E.01677
M73 P5 R85
G1 X93.752 Y76.126 E1.23231
G1 X93.218 Y76.126 E.01677
G1 X120.965 Y103.874 E1.23231
G1 X120.431 Y103.874 E.01677
G1 X92.684 Y76.126 E1.23231
G1 X92.15 Y76.126 E.01677
G1 X119.897 Y103.874 E1.23231
G1 X119.363 Y103.874 E.01677
G1 X91.616 Y76.126 E1.23231
G1 X91.082 Y76.126 E.01677
M73 P5 R84
G1 X118.829 Y103.874 E1.23231
G1 X118.295 Y103.874 E.01677
G1 X90.547 Y76.126 E1.23233
G1 X90.013 Y76.126 E.01677
G1 X117.76 Y103.874 E1.23231
G1 X117.226 Y103.874 E.01677
G1 X89.479 Y76.126 E1.23231
G1 X88.945 Y76.126 E.01677
G1 X116.692 Y103.874 E1.23231
G1 X116.158 Y103.874 E.01677
G1 X88.411 Y76.126 E1.23231
G1 X87.877 Y76.126 E.01677
G1 X115.624 Y103.874 E1.23231
G1 X115.09 Y103.874 E.01677
G1 X87.343 Y76.126 E1.23231
G1 X86.809 Y76.126 E.01677
G1 X114.556 Y103.874 E1.23231
G1 X114.022 Y103.874 E.01677
G1 X86.275 Y76.126 E1.23231
G1 X85.74 Y76.126 E.0168
G1 X113.488 Y103.874 E1.23233
G1 X112.953 Y103.874 E.0168
G1 X85.206 Y76.126 E1.23231
G1 X84.672 Y76.126 E.01677
G1 X112.419 Y103.874 E1.23231
G1 X111.885 Y103.874 E.01677
G1 X84.138 Y76.126 E1.23231
G1 X83.604 Y76.126 E.01677
G1 X111.351 Y103.874 E1.23231
G1 X110.817 Y103.874 E.01677
G1 X83.07 Y76.126 E1.23231
G1 X82.536 Y76.126 E.01677
G1 X110.283 Y103.874 E1.23231
G1 X109.749 Y103.874 E.01677
G1 X82.002 Y76.126 E1.23231
G1 X81.468 Y76.126 E.01677
G1 X109.215 Y103.874 E1.23231
G1 X108.681 Y103.874 E.01677
G1 X80.933 Y76.126 E1.23233
G1 X80.399 Y76.126 E.01677
G1 X108.146 Y103.874 E1.23231
G1 X107.612 Y103.874 E.01677
G1 X79.865 Y76.126 E1.23231
G1 X79.331 Y76.126 E.01677
M73 P6 R84
G1 X107.078 Y103.874 E1.23231
G1 X106.544 Y103.874 E.01677
G1 X78.797 Y76.126 E1.23231
G1 X78.263 Y76.126 E.01677
G1 X106.01 Y103.874 E1.23231
G1 X105.476 Y103.874 E.01677
G1 X77.729 Y76.126 E1.23231
G1 X77.195 Y76.126 E.01677
G1 X104.942 Y103.874 E1.23231
G1 X104.408 Y103.874 E.01677
G1 X76.661 Y76.126 E1.23231
G1 X76.127 Y76.126 E.01677
G1 X103.874 Y103.874 E1.23231
G1 X103.339 Y103.874 E.0168
G1 X75.592 Y76.126 E1.23231
G1 X75.058 Y76.126 E.01677
M73 P6 R83
G1 X102.805 Y103.874 E1.23231
G1 X102.271 Y103.874 E.01677
G1 X74.524 Y76.126 E1.23231
G1 X73.99 Y76.126 E.01677
G1 X101.737 Y103.874 E1.23231
G1 X101.203 Y103.874 E.01677
G1 X73.456 Y76.126 E1.23231
G1 X72.922 Y76.126 E.01677
G1 X100.669 Y103.874 E1.23231
G1 X100.135 Y103.874 E.01677
G1 X72.388 Y76.126 E1.23231
G1 X71.854 Y76.126 E.01677
G1 X99.601 Y103.874 E1.23231
G1 X99.067 Y103.874 E.01677
G1 X71.32 Y76.126 E1.23231
G1 X70.785 Y76.126 E.0168
G1 X98.533 Y103.874 E1.23233
G1 X97.998 Y103.874 E.0168
G1 X70.251 Y76.126 E1.23231
G1 X69.717 Y76.126 E.01677
G1 X97.464 Y103.874 E1.23231
G1 X96.93 Y103.874 E.01677
G1 X69.183 Y76.126 E1.23231
G1 X68.649 Y76.126 E.01677
G1 X96.396 Y103.874 E1.23231
G1 X95.862 Y103.874 E.01677
G1 X68.115 Y76.126 E1.23231
G1 X67.581 Y76.126 E.01677
G1 X95.328 Y103.874 E1.23231
G1 X94.794 Y103.874 E.01677
G1 X67.047 Y76.126 E1.23231
G1 X66.513 Y76.126 E.01677
G1 X94.26 Y103.874 E1.23231
G1 X93.726 Y103.874 E.01677
G1 X65.978 Y76.126 E1.23233
G1 X65.444 Y76.126 E.01677
M73 P7 R83
G1 X93.191 Y103.874 E1.23231
G1 X92.657 Y103.874 E.01677
G1 X64.91 Y76.126 E1.23231
G1 X64.376 Y76.126 E.01677
G1 X92.123 Y103.874 E1.23231
G1 X91.589 Y103.874 E.01677
G1 X63.842 Y76.126 E1.23231
G1 X63.308 Y76.126 E.01677
G1 X91.055 Y103.874 E1.23231
G1 X90.521 Y103.874 E.01677
G1 X62.774 Y76.126 E1.23231
G1 X62.24 Y76.126 E.01677
G1 X89.987 Y103.874 E1.23231
G1 X89.453 Y103.874 E.01677
G1 X61.706 Y76.126 E1.23231
G1 X61.171 Y76.126 E.0168
G1 X88.919 Y103.874 E1.23233
G1 X88.384 Y103.874 E.0168
G1 X60.637 Y76.126 E1.23231
G1 X60.103 Y76.126 E.01677
G1 X87.85 Y103.874 E1.23231
G1 X87.316 Y103.874 E.01677
G1 X59.569 Y76.126 E1.23231
G1 X59.035 Y76.126 E.01677
M73 P7 R82
G1 X86.782 Y103.874 E1.23231
G1 X86.248 Y103.874 E.01677
G1 X58.501 Y76.126 E1.23231
G1 X57.967 Y76.126 E.01677
G1 X85.714 Y103.874 E1.23231
G1 X85.18 Y103.874 E.01677
G1 X57.433 Y76.126 E1.23231
G1 X56.899 Y76.126 E.01677
G1 X84.646 Y103.874 E1.23231
G1 X84.112 Y103.874 E.01677
G1 X56.364 Y76.126 E1.23233
G1 X55.83 Y76.126 E.01677
G1 X83.577 Y103.874 E1.23231
G1 X83.043 Y103.874 E.01677
G1 X55.296 Y76.126 E1.23231
G1 X54.762 Y76.126 E.01677
G1 X82.509 Y103.874 E1.23231
G1 X81.975 Y103.874 E.01677
G1 X54.228 Y76.126 E1.23231
G1 X53.694 Y76.126 E.01677
G1 X81.441 Y103.874 E1.23231
G1 X80.907 Y103.874 E.01677
G1 X53.16 Y76.126 E1.23231
G1 X52.626 Y76.126 E.01677
G1 X80.373 Y103.874 E1.23231
G1 X79.839 Y103.874 E.01677
G1 X52.092 Y76.126 E1.23231
G1 X51.557 Y76.126 E.0168
G1 X79.305 Y103.874 E1.23233
G1 X78.77 Y103.874 E.0168
M73 P8 R82
G1 X51.023 Y76.126 E1.23231
G1 X50.489 Y76.126 E.01677
G1 X78.236 Y103.874 E1.23231
G1 X77.702 Y103.874 E.01677
G1 X49.955 Y76.126 E1.23231
G1 X49.421 Y76.126 E.01677
G1 X77.168 Y103.874 E1.23231
G1 X76.634 Y103.874 E.01677
G1 X48.887 Y76.126 E1.23231
G1 X48.353 Y76.126 E.01677
G1 X76.1 Y103.874 E1.23231
G1 X75.566 Y103.874 E.01677
G1 X47.819 Y76.126 E1.23231
G1 X47.285 Y76.126 E.01677
G1 X75.032 Y103.874 E1.23231
G1 X74.498 Y103.874 E.01677
G1 X46.75 Y76.126 E1.23233
G1 X46.216 Y76.126 E.01677
G1 X73.963 Y103.874 E1.23231
G1 X73.429 Y103.874 E.01677
G1 X45.682 Y76.126 E1.23231
G1 X45.148 Y76.126 E.01677
G1 X72.895 Y103.874 E1.23231
G1 X72.361 Y103.874 E.01677
G1 X44.614 Y76.126 E1.23231
G1 X44.08 Y76.126 E.01677
G1 X71.827 Y103.874 E1.23231
G1 X71.293 Y103.874 E.01677
G1 X43.546 Y76.126 E1.23231
G1 X43.012 Y76.126 E.01677
M73 P8 R81
G1 X70.759 Y103.874 E1.23231
G1 X70.225 Y103.874 E.01677
G1 X42.478 Y76.126 E1.23231
G1 X41.943 Y76.126 E.0168
G1 X69.691 Y103.874 E1.23233
G1 X69.156 Y103.874 E.0168
G1 X41.409 Y76.126 E1.23231
G1 X40.875 Y76.126 E.01677
G1 X68.622 Y103.874 E1.23231
G1 X68.088 Y103.874 E.01677
G1 X40.341 Y76.126 E1.23231
G1 X39.807 Y76.126 E.01677
