; generated by PrusaSlicer 2.7.4+MacOS-arm64 on 2024-11-26 at 11:55:24 UTC


;
;

;
;

;
;

;
;
; 

; external perimeters extrusion width = 0.45mm
; perimeters extrusion width = 0.45mm
; infill extrusion width = 0.45mm
; solid infill extrusion width = 0.45mm
; top infill extrusion width = 0.40mm
; first layer extrusion width = 0.42mm

M73 P0 R80
M201 X2500 Y2500 Z400 E5000 ; sets maximum accelerations, mm/sec^2
M203 X180 Y180 Z12 E80 ; sets maximum feedrates, mm / sec
M204 P2000 R1250 T2500 ; sets acceleration (P, T) and retract acceleration (R), mm/sec^2
M205 X8.00 Y8.00 Z2.00 E10.00 ; sets the jerk limits, mm/sec
M205 S0 T0 ; sets the minimum extruding and travel feed rate, mm/sec

M486 S0
M486 ABox_146x30x27_1x1.stl
M486 S-1

;TYPE:Custom
M862.3 P "MINI" ; printer model check
G90 ; use absolute coordinates
M83 ; extruder relative mode
M104 S170 ; set extruder temp for bed leveling
M140 S60 ; set bed temp
M109 R170 ; wait for bed leveling temp
M190 S60 ; wait for bed temp
M204 T1250 ; set travel acceleration
G28 ; home all without mesh bed level
G29 ; mesh bed leveling 
M204 T2500 ; restore travel acceleration
M104 S215 ; set extruder temp
G92 E0
G1 Y-2 X179 F2400
G1 Z3 F720
M109 S215 ; wait for extruder temp

; intro line
G1 X170 F1000
G1 Z0.2 F720
G1 X110 E8 F900
G1 X40 E10 F700
G92 E0

M221 S95 ; set flow
G21 ; set units to millimeters
G90 ; use absolute coordinates
M83 ; use relative distances for extrusion

M900 K0.2 ; Filament gcode LA 1.5
; ; Filament gcode LA 1.0




M107
;LAYER_CHANGE
;Z:0.2
;HEIGHT:0.2
G1 E-3.2 F4200
G1 Z.4 F720
G1 X22.034 Y73.067 F9000
G1 Z.2 F720
G1 E3.2 F2400
M204 P600
;TYPE:Skirt/Brim
;WIDTH:0.42
G1 F1200
G3 X25 Y72.623 I3.009 J9.976 E.09436
G1 X155.104 Y72.625 E4.07932
G3 X165.344 Y82.199 I-.168 J10.443 E.48185
G1 X165.375 Y97.104 E.46734
G3 X155 Y107.377 I-10.416 J-.143 E.50726
G1 X24.199 Y107.344 E4.10117
G3 X14.623 Y97.003 I.865 J-10.405 E.48508
G1 X14.623 Y83 E.43905
G3 X21.977 Y73.084 I10.42 J.043 E.41429
M204 P1000
G1 E-2.24 F4200
;WIPE_START
G1 F7200
G1 X22.034 Y73.067 E-.03296
G3 X23.667 Y72.714 I3.01 J9.976 E-.92704
;WIPE_END
G1 Z.4 F720
M486 S0
G1 X162.15 Y82.054 F9000
G1 Z.2 F720
G1 E3.2 F2400
M204 P600
;TYPE:Perimeter
;WIDTH:0.419999
G1 F1200
G3 X162.213 Y83.178 I-7.165 J.963 E.03533
G1 X162.213 Y96.983 E.43285
G3 X154.983 Y104.213 I-7.226 J.004 E.35614
G1 X25.017 Y104.213 E4.07499
G3 X17.787 Y96.983 I-.004 J-7.226 E.35614
G1 X17.787 Y83.017 E.43789
G3 X25.017 Y75.787 I7.226 J-.004 E.35614
G1 X154.983 Y75.787 E4.07499
G3 X162.142 Y81.995 I.002 J7.23 E.32399
M73 P1 R80
M204 P1000
G1 X162.142 Y81.995 F9000
G1 X162.515 Y82.007
M204 P600
;TYPE:External perimeter
G1 F1200
G3 X162.59 Y83.178 I-7.849 J1.091 E.03682
G1 X162.59 Y96.991 E.4331
G3 X154.991 Y104.59 I-7.602 J-.003 E.37422
G1 X25.009 Y104.59 E4.07549
G3 X17.41 Y96.991 I.003 J-7.602 E.37422
M73 P1 R79
G1 X17.41 Y83.009 E.4384
G3 X25.009 Y75.41 I7.602 J.003 E.37422
G1 X154.822 Y75.41 E4.07019
G3 X161.726 Y79.499 I.134 J7.646 E.26485
G3 X162.506 Y81.948 I-7.06 J3.599 E.08094
M204 P1000
G1 E-2.24 F4200
;WIPE_START
G1 F7200
G1 X162.515 Y82.007 E-.03307
G3 X162.59 Y83.178 I-7.849 J1.091 E-.65085
G1 X162.59 Y83.676 E-.27608
;WIPE_END
G1 Z.4 F720
G1 X158.794 Y77.075 F9000
G1 Z.2 F720
G1 E3.2 F2400
M204 P600
;TYPE:Solid infill
;WIDTH:0.420593
G1 F1200
G3 X160.265 Y78.582 I-23.736 J24.628 E.06614
G3 X161.172 Y79.988 I-5.466 J4.527 E.05267
G1 X158.012 Y76.828 E.14034
G2 X157.12 Y76.469 I-2.596 J5.177 E.03023
G1 X161.531 Y80.88 E.1959
G3 X161.724 Y81.607 I-4.965 J1.708 E.02364
G1 X156.393 Y76.276 E.23676
G1 X155.757 Y76.174 E.02023
G1 X161.826 Y82.243 E.26953
G1 X161.864 Y82.816 E.01803
G1 X155.184 Y76.136 E.29667
G1 X154.648 Y76.133 E.01683
G1 X161.874 Y83.359 E.32092
G1 X161.874 Y83.893 E.01677
G1 X154.113 Y76.133 E.34466
G1 X153.579 Y76.133 E.01677
G1 X161.874 Y84.428 E.36839
G1 X161.874 Y84.962 E.01677
G1 X153.045 Y76.133 E.39211
G1 X152.511 Y76.133 E.01677
G1 X161.874 Y85.496 E.41582
G1 X161.874 Y86.03 E.01677
G1 X151.977 Y76.133 E.43954
G1 X151.443 Y76.133 E.01677
G1 X161.874 Y86.564 E.46326
G1 X161.874 Y87.098 E.01677
G1 X150.909 Y76.133 E.48697
G1 X150.374 Y76.133 E.0168
G1 X161.874 Y87.632 E.51071
G1 X161.874 Y88.166 E.01677
G1 X149.84 Y76.133 E.53443
G1 X149.306 Y76.133 E.01677
G1 X161.874 Y88.7 E.55814
G1 X161.874 Y89.235 E.0168
G1 X148.772 Y76.133 E.58188
G1 X148.238 Y76.133 E.01677
G1 X161.874 Y89.769 E.60559
G1 X161.874 Y90.303 E.01677
G1 X147.704 Y76.133 E.62931
G1 X147.17 Y76.133 E.01677
G1 X161.874 Y90.837 E.65303
G1 X161.874 Y91.371 E.01677
G1 X146.635 Y76.133 E.67676
G1 X146.101 Y76.133 E.01677
G1 X161.874 Y91.905 E.70048
G1 X161.874 Y92.439 E.01677
G1 X145.567 Y76.133 E.7242
G1 X145.033 Y76.133 E.01677
G1 X161.874 Y92.973 E.74791
G1 X161.874 Y93.507 E.01677
G1 X144.499 Y76.133 E.77163
G1 X143.965 Y76.133 E.01677
G1 X161.874 Y94.041 E.79534
G1 X161.874 Y94.576 E.0168
G1 X143.431 Y76.133 E.81908
G1 X142.896 Y76.133 E.0168
G1 X161.874 Y95.11 E.84282
G1 X161.874 Y95.644 E.01677
G1 X142.362 Y76.133 E.86653
G1 X141.828 Y76.133 E.01677
G1 X161.874 Y96.178 E.89025
G1 X161.874 Y96.712 E.01677
G1 X141.294 Y76.133 E.91397
G1 X140.76 Y76.133 E.01677
M73 P2 R79
G1 X161.862 Y97.235 E.93717
G1 X161.828 Y97.735 E.01574
G1 X140.226 Y76.133 E.95938
G1 X139.692 Y76.132 E.01677
G1 X161.765 Y98.206 E.98032
G1 X161.668 Y98.643 E.01406
G1 X139.158 Y76.132 E.99972
G1 X138.623 Y76.132 E.0168
G1 X161.55 Y99.059 E1.01822
G1 X161.414 Y99.457 E.01321
G1 X138.089 Y76.132 E1.0359
G1 X137.555 Y76.132 E.01677
G1 X161.257 Y99.835 E1.05266
G1 X161.079 Y100.191 E.0125
G1 X137.021 Y76.132 E1.06847
G1 X136.487 Y76.132 E.01677
G1 X160.889 Y100.535 E1.08375
G1 X160.681 Y100.861 E.01214
G1 X135.953 Y76.132 E1.09823
G1 X135.419 Y76.132 E.01677
G1 X160.455 Y101.169 E1.11191
G1 X160.219 Y101.467 E.01194
M73 P2 R78
G1 X134.884 Y76.132 E1.12516
G1 X134.35 Y76.132 E.01677
G1 X159.964 Y101.746 E1.13755
G1 X159.695 Y102.011 E.01186
G1 X133.816 Y76.132 E1.14932
G1 X133.282 Y76.132 E.01677
G1 X159.416 Y102.266 E1.16065
G1 X159.114 Y102.498 E.01196
G1 X132.748 Y76.132 E1.17095
G1 X132.214 Y76.132 E.01677
G1 X158.801 Y102.719 E1.18077
G1 X158.475 Y102.927 E.01214
G1 X131.68 Y76.132 E1.19
G1 X131.145 Y76.132 E.0168
G1 X158.126 Y103.113 E1.19827
G1 X157.765 Y103.286 E.01257
G1 X130.611 Y76.132 E1.20595
G1 X130.077 Y76.132 E.01677
G1 X157.388 Y103.443 E1.21292
G1 X156.985 Y103.573 E.0133
G1 X129.543 Y76.132 E1.21872
G1 X129.009 Y76.132 E.01677
G1 X156.563 Y103.686 E1.22371
G1 X156.121 Y103.778 E.01418
G1 X128.475 Y76.132 E1.2278
G1 X127.941 Y76.132 E.01677
G1 X155.649 Y103.84 E1.23055
G1 X155.599 Y103.846 E.00158
G1 X155.141 Y103.866 E.0144
G1 X127.406 Y76.132 E1.23173
G1 X126.872 Y76.132 E.01677
M73 P3 R78
G1 X154.614 Y103.874 E1.23206
G1 X154.08 Y103.874 E.01677
G1 X126.338 Y76.132 E1.23206
G1 X125.804 Y76.132 E.01677
G1 X153.546 Y103.874 E1.23206
G1 X153.012 Y103.874 E.01677
G1 X125.27 Y76.132 E1.23206
G1 X124.736 Y76.132 E.01677
G1 X152.478 Y103.874 E1.23206
G1 X151.944 Y103.874 E.01677
G1 X124.202 Y76.132 E1.23206
G1 X123.668 Y76.132 E.01677
G1 X151.409 Y103.874 E1.23204
G1 X150.875 Y103.874 E.01677
G1 X123.133 Y76.132 E1.23206
G1 X122.599 Y76.132 E.01677
G1 X150.341 Y103.874 E1.23206
G1 X149.807 Y103.874 E.01677
G1 X122.065 Y76.132 E1.23206
G1 X121.531 Y76.132 E.01677
G1 X149.273 Y103.874 E1.23206
G1 X148.739 Y103.874 E.01677
G1 X120.997 Y76.132 E1.23206
G1 X120.463 Y76.131 E.01677
G1 X148.205 Y103.874 E1.23208
G1 X147.671 Y103.874 E.01677
G1 X119.929 Y76.131 E1.23208
G1 X119.394 Y76.131 E.0168
G1 X147.137 Y103.874 E1.23211
G1 X146.602 Y103.874 E.0168
G1 X118.86 Y76.131 E1.23208
G1 X118.326 Y76.131 E.01677
M73 P3 R77
G1 X146.068 Y103.874 E1.23208
G1 X145.534 Y103.874 E.01677
G1 X117.792 Y76.131 E1.23208
G1 X117.258 Y76.131 E.01677
G1 X145 Y103.874 E1.23208
G1 X144.466 Y103.874 E.01677
G1 X116.724 Y76.131 E1.23208
G1 X116.19 Y76.131 E.01677
G1 X143.932 Y103.874 E1.23208
G1 X143.398 Y103.874 E.01677
G1 X115.655 Y76.131 E1.23211
G1 X115.121 Y76.131 E.01677
G1 X142.864 Y103.874 E1.23211
G1 X142.33 Y103.874 E.01677
G1 X114.587 Y76.131 E1.23211
G1 X114.053 Y76.131 E.01677
G1 X141.795 Y103.874 E1.23208
G1 X141.261 Y103.874 E.01677
M73 P4 R77
G1 X113.519 Y76.131 E1.23208
G1 X112.985 Y76.131 E.01677
G1 X140.727 Y103.874 E1.23208
G1 X140.193 Y103.874 E.01677
G1 X112.451 Y76.131 E1.23208
G1 X111.916 Y76.131 E.0168
G1 X139.659 Y103.874 E1.23211
G1 X139.125 Y103.874 E.01677
G1 X111.382 Y76.131 E1.23211
G1 X110.848 Y76.131 E.01677
G1 X138.591 Y103.874 E1.23211
G1 X138.057 Y103.874 E.01677
G1 X110.314 Y76.131 E1.23211
G1 X109.78 Y76.131 E.01677
G1 X137.523 Y103.874 E1.23211
G1 X136.988 Y103.874 E.0168
G1 X109.246 Y76.131 E1.23208
G1 X108.712 Y76.131 E.01677
G1 X136.454 Y103.874 E1.23208
G1 X135.92 Y103.874 E.01677
G1 X108.177 Y76.131 E1.23211
G1 X107.643 Y76.131 E.01677
G1 X135.386 Y103.874 E1.23211
G1 X134.852 Y103.874 E.01677
G1 X107.109 Y76.131 E1.23211
G1 X106.575 Y76.131 E.01677
G1 X134.318 Y103.874 E1.23211
G1 X133.784 Y103.874 E.01677
G1 X106.041 Y76.131 E1.23211
G1 X105.507 Y76.131 E.01677
G1 X133.25 Y103.874 E1.23211
G1 X132.716 Y103.874 E.01677
G1 X104.973 Y76.131 E1.23211
G1 X104.439 Y76.131 E.01677
G1 X132.181 Y103.874 E1.23208
G1 X131.647 Y103.874 E.01677
G1 X103.904 Y76.131 E1.23211
G1 X103.37 Y76.131 E.01677
G1 X131.113 Y103.874 E1.23211
G1 X130.579 Y103.874 E.01677
G1 X102.836 Y76.131 E1.23211
G1 X102.302 Y76.131 E.01677
M73 P4 R76
G1 X130.045 Y103.874 E1.23211
G1 X129.511 Y103.874 E.01677
G1 X101.768 Y76.13 E1.23213
G1 X101.234 Y76.13 E.01677
G1 X128.977 Y103.874 E1.23213
G1 X128.443 Y103.874 E.01677
M73 P5 R76
G1 X100.7 Y76.13 E1.23213
G1 X100.165 Y76.13 E.0168
G1 X127.909 Y103.874 E1.23215
G1 X127.374 Y103.874 E.0168
G1 X99.631 Y76.13 E1.23213
G1 X99.097 Y76.13 E.01677
G1 X126.84 Y103.874 E1.23213
G1 X126.306 Y103.874 E.01677
G1 X98.563 Y76.13 E1.23213
G1 X98.029 Y76.13 E.01677
G1 X125.772 Y103.874 E1.23213
G1 X125.238 Y103.874 E.01677
G1 X97.495 Y76.13 E1.23213
G1 X96.961 Y76.13 E.01677
G1 X124.704 Y103.874 E1.23213
G1 X124.17 Y103.874 E.01677
G1 X96.426 Y76.13 E1.23215
G1 X95.892 Y76.13 E.01677
G1 X123.636 Y103.874 E1.23215
G1 X123.102 Y103.874 E.01677
G1 X95.358 Y76.13 E1.23215
G1 X94.824 Y76.13 E.01677
G1 X122.567 Y103.874 E1.23213
G1 X122.033 Y103.874 E.01677
G1 X94.29 Y76.13 E1.23213
G1 X93.756 Y76.13 E.01677
G1 X121.499 Y103.874 E1.23213
G1 X120.965 Y103.874 E.01677
G1 X93.222 Y76.13 E1.23213
G1 X92.687 Y76.13 E.0168
G1 X120.431 Y103.874 E1.23215
G1 X119.897 Y103.874 E.01677
G1 X92.153 Y76.13 E1.23215
G1 X91.619 Y76.13 E.01677
G1 X119.363 Y103.874 E1.23215
G1 X118.829 Y103.874 E.01677
G1 X91.085 Y76.13 E1.23215
G1 X90.551 Y76.13 E.01677
G1 X118.295 Y103.874 E1.23215
G1 X117.76 Y103.874 E.0168
G1 X90.017 Y76.13 E1.23213
G1 X89.483 Y76.13 E.01677
G1 X117.226 Y103.874 E1.23213
G1 X116.692 Y103.874 E.01677
G1 X88.949 Y76.13 E1.23213
G1 X88.414 Y76.13 E.0168
G1 X116.158 Y103.874 E1.23215
G1 X115.624 Y103.874 E.01677
M73 P6 R76
G1 X87.88 Y76.13 E1.23215
G1 X87.346 Y76.13 E.01677
G1 X115.09 Y103.874 E1.23215
G1 X114.556 Y103.874 E.01677
G1 X86.812 Y76.13 E1.23215
G1 X86.278 Y76.13 E.01677
M73 P6 R75
G1 X114.022 Y103.874 E1.23215
G1 X113.488 Y103.874 E.01677
G1 X85.744 Y76.13 E1.23215
G1 X85.21 Y76.13 E.01677
G1 X112.953 Y103.874 E1.23213
G1 X112.419 Y103.874 E.01677
G1 X84.675 Y76.13 E1.23215
G1 X84.141 Y76.13 E.01677
G1 X111.885 Y103.874 E1.23215
G1 X111.351 Y103.874 E.01677
G1 X83.607 Y76.13 E1.23215
G1 X83.073 Y76.13 E.01677
G1 X110.817 Y103.874 E1.23215
G1 X110.283 Y103.874 E.01677
G1 X82.539 Y76.129 E1.23217
G1 X82.005 Y76.129 E.01677
G1 X109.749 Y103.874 E1.23217
G1 X109.215 Y103.874 E.01677
G1 X81.471 Y76.129 E1.23217
G1 X80.936 Y76.129 E.0168
G1 X108.681 Y103.874 E1.2322
G1 X108.146 Y103.874 E.0168
G1 X80.402 Y76.129 E1.23217
G1 X79.868 Y76.129 E.01677
G1 X107.612 Y103.874 E1.23217
G1 X107.078 Y103.874 E.01677
G1 X79.334 Y76.129 E1.23217
G1 X78.8 Y76.129 E.01677
G1 X106.544 Y103.874 E1.23217
G1 X106.01 Y103.874 E.01677
G1 X78.266 Y76.129 E1.23217
G1 X77.732 Y76.129 E.01677
G1 X105.476 Y103.874 E1.23217
G1 X104.942 Y103.874 E.01677
G1 X77.197 Y76.129 E1.2322
G1 X76.663 Y76.129 E.01677
G1 X104.408 Y103.874 E1.2322
G1 X103.874 Y103.874 E.01677
G1 X76.129 Y76.129 E1.2322
G1 X75.595 Y76.129 E.01677
G1 X103.339 Y103.874 E1.23217
G1 X102.805 Y103.874 E.01677
M73 P7 R75
G1 X75.061 Y76.129 E1.23217
G1 X74.527 Y76.129 E.01677
G1 X102.271 Y103.874 E1.23217
G1 X101.737 Y103.874 E.01677
G1 X73.993 Y76.129 E1.23217
G1 X73.459 Y76.129 E.01677
G1 X101.203 Y103.874 E1.23217
G1 X100.669 Y103.874 E.01677
G1 X72.924 Y76.129 E1.2322
G1 X72.39 Y76.129 E.01677
G1 X100.135 Y103.874 E1.2322
G1 X99.601 Y103.874 E.01677
G1 X71.856 Y76.129 E1.2322
G1 X71.322 Y76.129 E.01677
G1 X99.067 Y103.874 E1.2322
G1 X98.533 Y103.874 E.01677
M73 P7 R74
G1 X70.788 Y76.129 E1.2322
G1 X70.254 Y76.129 E.01677
G1 X97.998 Y103.874 E1.23217
G1 X97.464 Y103.874 E.01677
G1 X69.72 Y76.129 E1.23217
G1 X69.185 Y76.129 E.0168
G1 X96.93 Y103.874 E1.2322
G1 X96.396 Y103.874 E.01677
G1 X68.651 Y76.129 E1.2322
G1 X68.117 Y76.129 E.01677
G1 X95.862 Y103.874 E1.2322
G1 X95.328 Y103.874 E.01677
G1 X67.583 Y76.129 E1.2322
G1 X67.049 Y76.129 E.01677
G1 X94.794 Y103.874 E1.2322
G1 X94.26 Y103.874 E.01677
G1 X66.515 Y76.129 E1.2322
G1 X65.981 Y76.129 E.01677
G1 X93.726 Y103.874 E1.2322
G1 X93.191 Y103.874 E.0168
G1 X65.446 Y76.129 E1.2322
G1 X64.912 Y76.129 E.01677
G1 X92.657 Y103.874 E1.2322
G1 X92.123 Y103.874 E.01677
G1 X64.378 Y76.129 E1.2322
G1 X63.844 Y76.128 E.01677
G1 X91.589 Y103.874 E1.23222
G1 X91.055 Y103.874 E.01677
G1 X63.31 Y76.128 E1.23222
G1 X62.776 Y76.128 E.01677
G1 X90.521 Y103.874 E1.23222
G1 X89.987 Y103.874 E.01677
M73 P8 R74
G1 X62.242 Y76.128 E1.23222
G1 X61.707 Y76.128 E.0168
G1 X89.453 Y103.874 E1.23224
G1 X88.919 Y103.874 E.01677
G1 X61.173 Y76.128 E1.23224
G1 X60.639 Y76.128 E.01677
G1 X88.384 Y103.874 E1.23222
G1 X87.85 Y103.874 E.01677
G1 X60.105 Y76.128 E1.23222
G1 X59.571 Y76.128 E.01677
G1 X87.316 Y103.874 E1.23222
G1 X86.782 Y103.874 E.01677
G1 X59.037 Y76.128 E1.23222
G1 X58.503 Y76.128 E.01677
G1 X86.248 Y103.874 E1.23222
G1 X85.714 Y103.874 E.01677
G1 X57.968 Y76.128 E1.23224
G1 X57.434 Y76.128 E.01677
G1 X85.18 Y103.874 E1.23224
G1 X84.646 Y103.874 E.01677
G1 X56.9 Y76.128 E1.23224
G1 X56.366 Y76.128 E.01677
G1 X84.112 Y103.874 E1.23224
G1 X83.577 Y103.874 E.0168
G1 X55.832 Y76.128 E1.23222
G1 X55.298 Y76.128 E.01677
G1 X83.043 Y103.874 E1.23222
G1 X82.509 Y103.874 E.01677
M73 P8 R73
G1 X54.764 Y76.128 E1.23222
G1 X54.23 Y76.128 E.01677
G1 X81.975 Y103.874 E1.23222
G1 X81.441 Y103.874 E.01677
G1 X53.695 Y76.128 E1.23224
G1 X53.161 Y76.128 E.01677
G1 X80.907 Y103.874 E1.23224
G1 X80.373 Y103.874 E.01677
G1 X52.627 Y76.128 E1.23224
G1 X52.093 Y76.128 E.01677
G1 X79.839 Y103.874 E1.23224
G1 X79.305 Y103.874 E.01677
G1 X51.559 Y76.128 E1.23224
G1 X51.025 Y76.128 E.01677
G1 X78.77 Y103.874 E1.23222
G1 X78.236 Y103.874 E.01677
G1 X50.491 Y76.128 E1.23222
G1 X49.956 Y76.128 E.0168
G1 X77.702 Y103.874 E1.23224
G1 X77.168 Y103.874 E.01677
G1 X49.422 Y76.128 E1.23224
G1 X48.888 Y76.128 E.01677
M73 P9 R73
G1 X76.634 Y103.874 E1.23224
G1 X76.1 Y103.874 E.01677
G1 X48.354 Y76.128 E1.23224
G1 X47.82 Y76.128 E.01677
G1 X75.566 Y103.874 E1.23224
G1 X75.032 Y103.874 E.01677
G1 X47.286 Y76.128 E1.23224
G1 X46.752 Y76.128 E.01677
G1 X74.498 Y103.874 E1.23224
G1 X73.963 Y103.874 E.0168
G1 X46.217 Y76.128 E1.23224
G1 X45.683 Y76.128 E.01677
G1 X73.429 Y103.874 E1.23224
G1 X72.895 Y103.874 E.01677
G1 X45.149 Y76.128 E1.23224
G1 X44.615 Y76.127 E.01677
G1 X72.361 Y103.874 E1.23226
G1 X71.827 Y103.874 E.01677
G1 X44.081 Y76.127 E1.23226
G1 X43.547 Y76.127 E.01677
G1 X71.293 Y103.874 E1.23226
G1 X70.759 Y103.874 E.01677
G1 X43.013 Y76.127 E1.23226
G1 X42.478 Y76.127 E.0168
G1 X70.225 Y103.874 E1.23228
G1 X69.691 Y103.874 E.01677
G1 X41.944 Y76.127 E1.23228
G1 X41.41 Y76.127 E.01677
G1 X69.156 Y103.874 E1.23226
G1 X68.622 Y103.874 E.01677
G1 X40.876 Y76.127 E1.23226
G1 X40.342 Y76.127 E.01677
G1 X68.088 Y103.874 E1.23226
G1 X67.554 Y103.874 E.01677
